; generated by Slic3r Prusa Edition 1.41.2+win64 on 2018-12-02 at 15:37:27

; 

; external perimeters extrusion width = 0.45mm
; perimeters extrusion width = 0.45mm
; infill extrusion width = 0.45mm
; solid infill extrusion width = 0.45mm
; top infill extrusion width = 0.40mm
; first layer extrusion width = 0.42mm

M73 P0 R32
M73 Q0 S33
M201 X1000 Y1000 Z1000 E5000 ; sets maximum accelerations, mm/sec^2
M203 X200 Y200 Z12 E120 ; sets maximum feedrates, mm/sec
M204 P1250 R1250 T1250 ; sets acceleration (P, T) and retract acceleration (R), mm/sec^2
M205 X8.00 Y8.00 Z0.40 E1.50 ; sets the jerk limits, mm/sec
M205 S0 T0 ; sets the minimum extruding and travel feed rate, mm/sec
M107
M115 U3.4.1 ; tell printer latest fw version
M83  ; extruder relative mode
M104 S230 ; set extruder temp
M140 S85 ; set bed temp
M190 S85 ; wait for bed temp
M109 S230 ; wait for extruder temp
G28 W ; home all without mesh bed level
G80 ; mesh bed leveling
G1 Y-3.0 F1000.0 ; go outside print area
G92 E0.0
G1 X60.0 E9.0  F1000.0 ; intro line
M73 Q0 S32
M73 P0 R32
G1 X100.0 E12.5  F1000.0 ; intro line
G92 E0.0
M221 S95
M900 K45; Filament gcode
G21 ; set units to millimeters
G90 ; use absolute coordinates
M83 ; use relative distances for extrusion
;BEFORE_LAYER_CHANGE
G92 E0.0
;0.2


G1 E-0.80000 F2100.00000
G1 Z0.600 F10800.000
;AFTER_LAYER_CHANGE
;0.2
G1 X133.045 Y72.312
G1 Z0.200
G1 E0.80000 F2100.00000
M204 S1000
G1 F1200
G1 X133.716 Y72.200 E0.02134
G1 X178.190 Y72.200 E1.39446
G1 X179.007 Y72.359 E0.02608
G1 X179.705 Y72.812 E0.02608
G1 X180.183 Y73.492 E0.02608
G1 X180.374 Y74.306 E0.02620
G1 X180.375 Y104.927 E0.96010
G1 X180.305 Y105.418 E0.01555
G1 X180.127 Y105.881 E0.01555
G1 X179.849 Y106.292 E0.01555
G1 X179.483 Y106.632 E0.01567
G1 X178.879 Y106.945 E0.02134
G1 X178.207 Y107.057 E0.02134
G1 X133.715 Y107.057 E1.39503
G1 X133.216 Y106.994 E0.01578
G1 X132.741 Y106.817 E0.01589
G1 X132.319 Y106.535 E0.01589
G1 X131.973 Y106.165 E0.01589
G1 X131.662 Y105.564 E0.02123
G1 X131.548 Y104.896 E0.02123
G1 X131.548 Y74.359 E0.95747
G1 X131.613 Y73.860 E0.01578
G1 X131.790 Y73.389 E0.01578
G1 X132.070 Y72.970 E0.01578
G1 X132.440 Y72.625 E0.01589
G1 X132.992 Y72.339 E0.01946
; PURGING FINISHED
G1 F8640
G1 X133.716 Y72.200 E-0.17041
G1 X136.270 Y72.200 E-0.58959
G1 E-0.04000 F2100.00000
G1 Z0.800 F10800.000
G1 X134.324 Y74.975
G1 Z0.200
G1 E0.80000 F2100.00000
G1 F1200
G1 X177.600 Y74.975 E1.35688
G1 X177.600 Y104.281 E0.91886
G1 X134.324 Y104.281 E1.35688
G1 X134.324 Y75.035 E0.91698
G1 X133.947 Y74.598 F10800.000
G1 F1200
G1 X177.977 Y74.598 E1.38053
G1 X177.977 Y104.658 E0.94251
G1 X133.947 Y104.658 E1.38053
G1 X133.947 Y74.658 E0.94063
G1 X134.339 Y74.678 F10800.000
G1 F8640
G1 X137.238 Y74.654 E-0.76000
G1 E-0.04000 F2100.00000
G1 Z0.800 F10800.000
G1 X134.437 Y103.403
G1 Z0.200
G1 E0.80000 F2100.00000
G1 F1200
G1 X135.032 Y103.998 E0.02646
G1 X135.567 Y103.998 E0.01682
G1 X134.607 Y103.038 E0.04270
G1 X134.607 Y102.503 E0.01682
G1 X136.102 Y103.998 E0.06649
G1 X136.636 Y103.998 E0.01682
G1 X134.607 Y101.969 E0.09027
G1 X134.607 Y101.434 E0.01682
G1 X137.171 Y103.998 E0.11406
G1 X137.706 Y103.998 E0.01682
G1 X134.607 Y100.899 E0.13784
G1 X134.607 Y100.364 E0.01682
G1 X138.241 Y103.998 E0.16163
G1 X138.776 Y103.998 E0.01682
G1 X134.607 Y99.829 E0.18542
G1 X134.607 Y99.294 E0.01682
G1 X139.311 Y103.998 E0.20920
G1 X139.846 Y103.998 E0.01682
G1 X134.607 Y98.759 E0.23299
G1 X134.607 Y98.225 E0.01682
G1 X140.380 Y103.998 E0.25678
G1 X140.915 Y103.998 E0.01682
G1 X134.607 Y97.690 E0.28056
G1 X134.607 Y97.155 E0.01682
G1 X141.450 Y103.998 E0.30435
G1 X141.985 Y103.998 E0.01682
G1 X134.607 Y96.620 E0.32813
G1 X134.607 Y96.085 E0.01682
G1 X142.520 Y103.998 E0.35192
G1 X143.055 Y103.998 E0.01682
G1 X134.607 Y95.550 E0.37571
G1 X134.607 Y95.016 E0.01682
G1 X143.589 Y103.998 E0.39949
G1 X144.124 Y103.998 E0.01682
G1 X134.607 Y94.481 E0.42328
G1 X134.607 Y93.946 E0.01682
G1 X144.659 Y103.998 E0.44707
G1 X145.194 Y103.998 E0.01682
G1 X134.607 Y93.411 E0.47085
G1 X134.607 Y92.876 E0.01682
G1 X145.729 Y103.998 E0.49464
G1 X146.264 Y103.998 E0.01682
G1 X134.607 Y92.341 E0.51842
G1 X134.607 Y91.806 E0.01682
G1 X146.799 Y103.998 E0.54221
G1 X147.333 Y103.998 E0.01682
G1 X134.607 Y91.272 E0.56600
G1 X134.607 Y90.737 E0.01682
G1 X147.868 Y103.998 E0.58978
G1 X148.403 Y103.998 E0.01682
G1 X134.607 Y90.202 E0.61357
G1 X134.607 Y89.667 E0.01682
G1 X148.938 Y103.998 E0.63735
G1 X149.473 Y103.998 E0.01682
G1 X134.607 Y89.132 E0.66114
G1 X134.607 Y88.597 E0.01682
G1 X150.008 Y103.998 E0.68493
G1 X150.542 Y103.998 E0.01682
G1 X134.607 Y88.062 E0.70871
G1 X134.607 Y87.528 E0.01682
G1 X151.077 Y103.998 E0.73250
G1 X151.612 Y103.998 E0.01682
G1 X134.607 Y86.993 E0.75629
G1 X134.607 Y86.458 E0.01682
G1 X152.147 Y103.998 E0.78007
G1 X152.682 Y103.998 E0.01682
G1 X134.607 Y85.923 E0.80386
G1 X134.607 Y85.388 E0.01682
G1 X153.217 Y103.998 E0.82764
G1 X153.752 Y103.998 E0.01682
G1 X134.607 Y84.853 E0.85143
G1 X134.607 Y84.319 E0.01682
G1 X154.286 Y103.998 E0.87522
G1 X154.821 Y103.998 E0.01682
G1 X134.607 Y83.784 E0.89900
G1 X134.607 Y83.249 E0.01682
G1 X155.356 Y103.998 E0.92279
G1 X155.891 Y103.998 E0.01682
G1 X134.607 Y82.714 E0.94658
G1 X134.607 Y82.179 E0.01682
G1 X156.426 Y103.998 E0.97036
M73 Q3 S31
M73 P3 R31
G1 X156.961 Y103.998 E0.01682
G1 X134.607 Y81.644 E0.99415
G1 X134.607 Y81.109 E0.01682
G1 X157.496 Y103.998 E1.01793
G1 X158.030 Y103.998 E0.01682
G1 X134.607 Y80.575 E1.04172
G1 X134.607 Y80.040 E0.01682
G1 X158.565 Y103.998 E1.06551
G1 X159.100 Y103.998 E0.01682
G1 X134.607 Y79.505 E1.08929
G1 X134.607 Y78.970 E0.01682
G1 X159.635 Y103.998 E1.11308
G1 X160.170 Y103.998 E0.01682
G1 X134.607 Y78.435 E1.13687
G1 X134.607 Y77.900 E0.01682
G1 X160.705 Y103.998 E1.16065
G1 X161.239 Y103.998 E0.01682
G1 X134.607 Y77.366 E1.18444
G1 X134.607 Y76.831 E0.01682
G1 X161.774 Y103.998 E1.20822
G1 X162.309 Y103.998 E0.01682
G1 X134.607 Y76.296 E1.23201
G1 X134.607 Y75.761 E0.01682
G1 X162.844 Y103.998 E1.25580
G1 X163.379 Y103.998 E0.01682
G1 X134.639 Y75.258 E1.27816
G1 X135.173 Y75.258 E0.01682
G1 X163.914 Y103.998 E1.27816
G1 X164.449 Y103.998 E0.01682
G1 X135.708 Y75.258 E1.27816
G1 X136.243 Y75.258 E0.01682
G1 X164.983 Y103.998 E1.27816
G1 X165.518 Y103.998 E0.01682
G1 X136.778 Y75.258 E1.27816
G1 X137.313 Y75.258 E0.01682
G1 X166.053 Y103.998 E1.27816
G1 X166.588 Y103.998 E0.01682
G1 X137.848 Y75.258 E1.27816
G1 X138.383 Y75.258 E0.01682
G1 X167.123 Y103.998 E1.27816
G1 X167.658 Y103.998 E0.01682
G1 X138.917 Y75.258 E1.27816
G1 X139.452 Y75.258 E0.01682
G1 X168.192 Y103.998 E1.27816
G1 X168.727 Y103.998 E0.01682
G1 X139.987 Y75.258 E1.27816
G1 X140.522 Y75.258 E0.01682
G1 X169.262 Y103.998 E1.27816
G1 X169.797 Y103.998 E0.01682
G1 X141.057 Y75.258 E1.27816
G1 X141.592 Y75.258 E0.01682
G1 X170.332 Y103.998 E1.27816
G1 X170.867 Y103.998 E0.01682
G1 X142.126 Y75.258 E1.27816
G1 X142.661 Y75.258 E0.01682
G1 X171.402 Y103.998 E1.27816
G1 X171.936 Y103.998 E0.01682
G1 X143.196 Y75.258 E1.27816
G1 X143.731 Y75.258 E0.01682
G1 X172.471 Y103.998 E1.27816
G1 X173.006 Y103.998 E0.01682
G1 X144.266 Y75.258 E1.27816
M73 Q6 S30
M73 P6 R30
G1 X144.801 Y75.258 E0.01682
G1 X173.541 Y103.998 E1.27816
G1 X174.076 Y103.998 E0.01682
G1 X145.336 Y75.258 E1.27816
G1 X145.870 Y75.258 E0.01682
G1 X174.611 Y103.998 E1.27816
G1 X175.146 Y103.998 E0.01682
G1 X146.405 Y75.258 E1.27816
G1 X146.940 Y75.258 E0.01682
G1 X175.680 Y103.998 E1.27816
G1 X176.215 Y103.998 E0.01682
G1 X147.475 Y75.258 E1.27816
G1 X148.010 Y75.258 E0.01682
G1 X176.750 Y103.998 E1.27816
G1 X177.285 Y103.998 E0.01682
G1 X148.545 Y75.258 E1.27816
G1 X149.079 Y75.258 E0.01682
G1 X177.317 Y103.495 E1.25580
G1 X177.317 Y102.961 E0.01682
G1 X149.614 Y75.258 E1.23201
G1 X150.149 Y75.258 E0.01682
G1 X177.317 Y102.426 E1.20822
G1 X177.317 Y101.891 E0.01682
G1 X150.684 Y75.258 E1.18444
G1 X151.219 Y75.258 E0.01682
G1 X177.317 Y101.356 E1.16065
G1 X177.317 Y100.821 E0.01682
G1 X151.754 Y75.258 E1.13687
G1 X152.289 Y75.258 E0.01682
G1 X177.317 Y100.286 E1.11308
G1 X177.317 Y99.752 E0.01682
G1 X152.823 Y75.258 E1.08929
G1 X153.358 Y75.258 E0.01682
G1 X177.317 Y99.217 E1.06551
G1 X177.317 Y98.682 E0.01682
G1 X153.893 Y75.258 E1.04172
G1 X154.428 Y75.258 E0.01682
G1 X177.317 Y98.147 E1.01793
G1 X177.317 Y97.612 E0.01682
G1 X154.963 Y75.258 E0.99415
G1 X155.498 Y75.258 E0.01682
G1 X177.317 Y97.077 E0.97036
G1 X177.317 Y96.542 E0.01682
G1 X156.033 Y75.258 E0.94658
G1 X156.567 Y75.258 E0.01682
G1 X177.317 Y96.008 E0.92279
G1 X177.317 Y95.473 E0.01682
G1 X157.102 Y75.258 E0.89900
G1 X157.637 Y75.258 E0.01682
G1 X177.317 Y94.938 E0.87522
G1 X177.317 Y94.403 E0.01682
G1 X158.172 Y75.258 E0.85143
G1 X158.707 Y75.258 E0.01682
G1 X177.317 Y93.868 E0.82764
G1 X177.317 Y93.333 E0.01682
G1 X159.242 Y75.258 E0.80386
G1 X159.776 Y75.258 E0.01682
G1 X177.317 Y92.798 E0.78007
G1 X177.317 Y92.264 E0.01682
G1 X160.311 Y75.258 E0.75629
G1 X160.846 Y75.258 E0.01682
G1 X177.317 Y91.729 E0.73250
G1 X177.317 Y91.194 E0.01682
G1 X161.381 Y75.258 E0.70871
G1 X161.916 Y75.258 E0.01682
G1 X177.317 Y90.659 E0.68493
G1 X177.317 Y90.124 E0.01682
G1 X162.451 Y75.258 E0.66114
G1 X162.986 Y75.258 E0.01682
G1 X177.317 Y89.589 E0.63735
G1 X177.317 Y89.055 E0.01682
G1 X163.520 Y75.258 E0.61357
G1 X164.055 Y75.258 E0.01682
G1 X177.317 Y88.520 E0.58978
M73 Q9 S29
M73 P9 R29
G1 X177.317 Y87.985 E0.01682
G1 X164.590 Y75.258 E0.56600
G1 X165.125 Y75.258 E0.01682
G1 X177.317 Y87.450 E0.54221
G1 X177.317 Y86.915 E0.01682
G1 X165.660 Y75.258 E0.51842
G1 X166.195 Y75.258 E0.01682
G1 X177.317 Y86.380 E0.49464
G1 X177.317 Y85.845 E0.01682
G1 X166.729 Y75.258 E0.47085
G1 X167.264 Y75.258 E0.01682
G1 X177.317 Y85.311 E0.44706
G1 X177.317 Y84.776 E0.01682
G1 X167.799 Y75.258 E0.42328
G1 X168.334 Y75.258 E0.01682
G1 X177.317 Y84.241 E0.39949
G1 X177.317 Y83.706 E0.01682
G1 X168.869 Y75.258 E0.37571
G1 X169.404 Y75.258 E0.01682
G1 X177.317 Y83.171 E0.35192
G1 X177.317 Y82.636 E0.01682
G1 X169.939 Y75.258 E0.32813
G1 X170.473 Y75.258 E0.01682
G1 X177.317 Y82.102 E0.30435
G1 X177.317 Y81.567 E0.01682
G1 X171.008 Y75.258 E0.28056
G1 X171.543 Y75.258 E0.01682
G1 X177.317 Y81.032 E0.25678
G1 X177.317 Y80.497 E0.01682
G1 X172.078 Y75.258 E0.23299
G1 X172.613 Y75.258 E0.01682
G1 X177.317 Y79.962 E0.20920
G1 X177.317 Y79.427 E0.01682
G1 X173.148 Y75.258 E0.18542
G1 X173.683 Y75.258 E0.01682
G1 X177.317 Y78.892 E0.16163
G1 X177.317 Y78.358 E0.01682
G1 X174.217 Y75.258 E0.13784
G1 X174.752 Y75.258 E0.01682
G1 X177.317 Y77.823 E0.11406
G1 X177.317 Y77.288 E0.01682
G1 X175.287 Y75.258 E0.09027
G1 X175.822 Y75.258 E0.01682
G1 X177.317 Y76.753 E0.06649
G1 X177.317 Y76.218 E0.01682
G1 X176.357 Y75.258 E0.04270
G1 X176.892 Y75.258 E0.01682
G1 X177.487 Y75.853 E0.02646
;BEFORE_LAYER_CHANGE
G92 E0.0
;0.35


G1 F8640
G1 X176.892 Y75.258 E-0.19428
G1 X176.357 Y75.258 E-0.12350
G1 X177.317 Y76.218 E-0.31352
G1 X177.317 Y76.753 E-0.12350
G1 X177.301 Y76.737 E-0.00520
G1 E-0.04000 F2100.00000
G1 Z0.800 F10800.000
;AFTER_LAYER_CHANGE
;0.35
M104 S240 ; set temperature
M140 S90 ; set bed temperature
G1 X180.183 Y73.492
G1 Z0.350
G1 E0.80000 F2100.00000
G1 F3000
G1 X180.374 Y74.306 E0.02021
G1 X180.375 Y104.927 E0.74057
G1 X180.305 Y105.418 E0.01200
G1 X180.127 Y105.881 E0.01200
G1 X179.849 Y106.292 E0.01200
G1 X179.483 Y106.632 E0.01208
G1 X178.879 Y106.945 E0.01646
G1 X178.207 Y107.057 E0.01646
G1 X133.715 Y107.057 E1.07604
G1 X133.216 Y106.994 E0.01217
G1 X132.741 Y106.817 E0.01226
G1 X132.319 Y106.535 E0.01226
G1 X131.973 Y106.165 E0.01226
G1 X131.662 Y105.564 E0.01637
G1 X131.548 Y104.896 E0.01637
G1 X131.548 Y74.359 E0.73853
G1 X131.613 Y73.860 E0.01217
G1 X131.790 Y73.389 E0.01217
G1 X132.070 Y72.970 E0.01217
G1 X132.440 Y72.625 E0.01226
G1 X133.045 Y72.312 E0.01646
G1 X133.716 Y72.200 E0.01646
G1 X178.190 Y72.200 E1.07560
G1 X179.007 Y72.359 E0.02012
G1 X179.705 Y72.812 E0.02012
G1 X180.149 Y73.443 E0.01867
; PURGING FINISHED
G1 F8640
G1 X180.374 Y74.306 E-0.20582
G1 X180.374 Y76.706 E-0.55418
G1 E-0.04000 F2100.00000
G1 Z0.950 F10800.000
G1 X177.544 Y75.031
G1 Z0.350
G1 E0.80000 F2100.00000
M204 S800
G1 F2700
G1 X177.544 Y104.225 E0.76068
G1 X134.380 Y104.225 E1.12468
G1 X134.380 Y75.031 E0.76068
G1 X177.484 Y75.031 E1.12312
M204 S1000
G1 X177.962 Y74.613 F10800.000
M204 S800
G1 F2100
G1 X177.962 Y104.643 E0.78245
G1 X133.962 Y104.643 E1.14645
G1 X133.962 Y74.613 E0.78245
G1 X177.902 Y74.613 E1.14489
M204 S1000
G1 X177.834 Y74.992 F10800.000
G1 F8640
G1 X177.908 Y77.905 E-0.76000
G1 E-0.04000 F2100.00000
G1 Z0.950 F10800.000
G1 X176.568 Y104.100
G1 Z0.350
G1 E0.80000 F2100.00000
M204 S1250
G1 F7611.58
G1 X177.231 Y103.438 E0.02455
G1 X177.231 Y102.843 E0.01559
G1 X176.162 Y103.912 E0.03962
G1 X175.567 Y103.912 E0.01559
G1 X177.231 Y102.249 E0.06167
G1 X177.231 Y101.654 E0.01559
G1 X174.973 Y103.912 E0.08371
G1 X174.378 Y103.912 E0.01559
G1 X177.231 Y101.060 E0.10576
G1 X177.231 Y100.465 E0.01559
G1 X173.784 Y103.912 E0.12780
G1 X173.189 Y103.912 E0.01559
G1 X177.231 Y99.871 E0.14985
G1 X177.231 Y99.276 E0.01559
G1 X172.595 Y103.912 E0.17189
G1 X172.000 Y103.912 E0.01559
G1 X177.231 Y98.682 E0.19394
G1 X177.231 Y98.087 E0.01559
G1 X171.406 Y103.912 E0.21598
G1 X170.811 Y103.912 E0.01559
G1 X177.231 Y97.492 E0.23803
G1 X177.231 Y96.898 E0.01559
G1 X170.216 Y103.912 E0.26007
G1 X169.622 Y103.912 E0.01559
G1 X177.231 Y96.303 E0.28212
G1 X177.231 Y95.709 E0.01559
G1 X169.027 Y103.912 E0.30416
G1 X168.433 Y103.912 E0.01559
G1 X177.231 Y95.114 E0.32621
G1 X177.231 Y94.520 E0.01559
G1 X167.838 Y103.912 E0.34825
G1 X167.244 Y103.912 E0.01559
G1 X177.231 Y93.925 E0.37029
G1 X177.231 Y93.331 E0.01559
G1 X166.649 Y103.912 E0.39234
G1 X166.055 Y103.912 E0.01559
G1 X177.231 Y92.736 E0.41438
G1 X177.231 Y92.141 E0.01559
G1 X165.460 Y103.912 E0.43643
G1 X164.865 Y103.912 E0.01559
G1 X177.231 Y91.547 E0.45847
G1 X177.231 Y90.952 E0.01559
G1 X164.271 Y103.912 E0.48052
G1 X163.676 Y103.912 E0.01559
G1 X177.231 Y90.358 E0.50256
G1 X177.231 Y89.763 E0.01559
G1 X163.082 Y103.912 E0.52461
G1 X162.487 Y103.912 E0.01559
G1 X177.231 Y89.169 E0.54665
G1 X177.231 Y88.574 E0.01559
G1 X161.893 Y103.912 E0.56870
G1 X161.298 Y103.912 E0.01559
G1 X177.231 Y87.980 E0.59074
G1 X177.231 Y87.385 E0.01559
G1 X160.704 Y103.912 E0.61279
G1 X160.109 Y103.912 E0.01559
G1 X177.231 Y86.791 E0.63483
G1 X177.231 Y86.196 E0.01559
G1 X159.514 Y103.912 E0.65688
G1 X158.920 Y103.912 E0.01559
G1 X177.231 Y85.601 E0.67892
G1 X177.231 Y85.007 E0.01559
G1 X158.325 Y103.912 E0.70097
G1 X157.731 Y103.912 E0.01559
G1 X177.231 Y84.412 E0.72301
G1 X177.231 Y83.818 E0.01559
G1 X157.136 Y103.912 E0.74506
G1 X156.542 Y103.912 E0.01559
G1 X177.231 Y83.223 E0.76710
G1 X177.231 Y82.629 E0.01559
G1 X155.947 Y103.912 E0.78915
G1 X155.353 Y103.912 E0.01559
G1 X177.231 Y82.034 E0.81119
G1 X177.231 Y81.440 E0.01559
G1 X154.758 Y103.912 E0.83323
G1 X154.164 Y103.912 E0.01559
G1 X177.231 Y80.845 E0.85528
G1 X177.231 Y80.250 E0.01559
G1 X153.569 Y103.912 E0.87732
G1 X152.974 Y103.912 E0.01559
G1 X177.231 Y79.656 E0.89937
G1 X177.231 Y79.061 E0.01559
G1 X152.380 Y103.912 E0.92141
G1 X151.785 Y103.912 E0.01559
G1 X177.231 Y78.467 E0.94346
G1 X177.231 Y77.872 E0.01559
G1 X151.191 Y103.912 E0.96550
G1 X150.596 Y103.912 E0.01559
G1 X177.231 Y77.278 E0.98755
G1 X177.231 Y76.683 E0.01559
G1 X150.002 Y103.912 E1.00959
G1 X149.407 Y103.912 E0.01559
G1 X177.231 Y76.089 E1.03164
G1 X177.231 Y75.494 E0.01559
G1 X148.813 Y103.912 E1.05368
G1 X148.218 Y103.912 E0.01559
G1 X176.786 Y75.344 E1.05923
G1 X176.191 Y75.344 E0.01559
G1 X147.623 Y103.912 E1.05923
G1 X147.029 Y103.912 E0.01559
G1 X175.597 Y75.344 E1.05923
G1 X175.002 Y75.344 E0.01559
G1 X146.434 Y103.912 E1.05923
G1 X145.840 Y103.912 E0.01559
G1 X174.407 Y75.344 E1.05923
G1 X173.813 Y75.344 E0.01559
G1 X145.245 Y103.912 E1.05923
G1 X144.651 Y103.912 E0.01559
G1 X173.218 Y75.344 E1.05923
G1 X172.624 Y75.344 E0.01559
G1 X144.056 Y103.912 E1.05923
G1 X143.462 Y103.912 E0.01559
G1 X172.029 Y75.344 E1.05923
G1 X171.435 Y75.344 E0.01559
G1 X142.867 Y103.912 E1.05923
G1 X142.272 Y103.912 E0.01559
