; generated by Slic3r Prusa Edition 1.41.2+win64 on 2018-12-02 at 14:10:56

; 

; external perimeters extrusion width = 0.45mm
; perimeters extrusion width = 0.45mm
; infill extrusion width = 0.45mm
; solid infill extrusion width = 0.45mm
; top infill extrusion width = 0.40mm
; first layer extrusion width = 0.42mm

M73 P0 R9
M73 Q0 S9
M201 X1000 Y1000 Z1000 E5000 ; sets maximum accelerations, mm/sec^2
M203 X200 Y200 Z12 E120 ; sets maximum feedrates, mm/sec
M204 P1250 R1250 T1250 ; sets acceleration (P, T) and retract acceleration (R), mm/sec^2
M205 X8.00 Y8.00 Z0.40 E1.50 ; sets the jerk limits, mm/sec
M205 S0 T0 ; sets the minimum extruding and travel feed rate, mm/sec
M107
M115 U3.4.1 ; tell printer latest fw version
M83  ; extruder relative mode
M104 S230 ; set extruder temp
M140 S85 ; set bed temp
M190 S85 ; wait for bed temp
M109 S230 ; wait for extruder temp
G28 W ; home all without mesh bed level
G80 ; mesh bed leveling
G1 Y-3.0 F1000.0 ; go outside print area
G92 E0.0
G1 X60.0 E9.0  F1000.0 ; intro line
M73 Q0 S9
M73 P0 R9
G1 X100.0 E12.5  F1000.0 ; intro line
G92 E0.0
M221 S95
M900 K45; Filament gcode
G21 ; set units to millimeters
G90 ; use absolute coordinates
M83 ; use relative distances for extrusion
;BEFORE_LAYER_CHANGE
G92 E0.0
;0.2


G1 E-0.80000 F2100.00000
G1 Z0.600 F10800.000
;AFTER_LAYER_CHANGE
;0.2
G1 X133.689 Y79.709
G1 Z0.200
G1 E0.80000 F2100.00000
M204 S1000
G1 F1200
G1 X133.995 Y79.159 E0.01976
G1 X134.449 Y78.716 E0.01987
G1 X135.011 Y78.423 E0.01987
G1 X135.629 Y78.302 E0.01976
G1 X163.677 Y78.300 E0.87943
G1 X199.394 Y78.614 E1.11990
G1 X199.978 Y78.720 E0.01862
G1 X200.516 Y78.980 E0.01873
G1 X200.961 Y79.374 E0.01862
G1 X201.285 Y79.876 E0.01873
G1 X201.438 Y80.328 E0.01498
G1 X201.490 Y80.801 E0.01491
G1 X201.490 Y115.098 E1.07537
G1 X201.291 Y154.258 E1.22784
G1 X201.196 Y154.859 E0.01908
G1 X200.940 Y155.410 E0.01908
G1 X200.539 Y155.873 E0.01919
G1 X200.028 Y156.204 E0.01908
G1 X199.583 Y156.356 E0.01475
G1 X199.112 Y156.409 E0.01487
G1 X136.344 Y156.434 E1.96804
G1 X135.743 Y156.340 E0.01908
G1 X135.188 Y156.083 E0.01919
G1 X134.728 Y155.684 E0.01908
G1 X134.394 Y155.172 E0.01919
G1 X134.189 Y154.292 E0.02833
G1 X133.545 Y114.799 E1.23842
G1 X133.545 Y80.481 E1.07603
G1 X133.678 Y79.768 E0.02274
; PURGING FINISHED
G1 F8640
G1 X133.995 Y79.159 E-0.15868
G1 X134.449 Y78.716 E-0.14632
G1 X135.011 Y78.423 E-0.14632
G1 X135.629 Y78.302 E-0.14549
G1 X136.336 Y78.302 E-0.16318
G1 E-0.04000 F2100.00000
G1 Z0.800 F10800.000
G1 X140.220 Y139.865
G1 Z0.200
G1 E0.80000 F2100.00000
G1 F1200
G1 X140.806 Y139.804 E0.01846
G1 X141.395 Y139.859 E0.01855
G1 X141.951 Y140.024 E0.01819
G1 X142.470 Y140.295 E0.01837
G1 X142.934 Y140.668 E0.01865
G1 X143.317 Y141.129 E0.01880
G1 X143.594 Y141.639 E0.01819
G1 X143.768 Y142.192 E0.01819
G1 X143.833 Y142.786 E0.01874
G1 X143.783 Y143.367 E0.01828
G1 X143.615 Y143.941 E0.01874
G1 X143.346 Y144.458 E0.01828
G1 X142.970 Y144.927 E0.01883
G1 X142.509 Y145.311 E0.01883
G1 X142.428 Y145.354 E0.00288
G1 X142.935 Y145.750 E0.02016
G1 X143.317 Y146.209 E0.01874
G1 X143.594 Y146.719 E0.01819
G1 X143.768 Y147.272 E0.01819
G1 X143.833 Y147.866 E0.01874
G1 X143.783 Y148.447 E0.01828
G1 X143.615 Y149.021 E0.01874
G1 X143.346 Y149.538 E0.01828
G1 X142.970 Y150.007 E0.01883
G1 X142.509 Y150.391 E0.01883
G1 X141.996 Y150.669 E0.01828
G1 X141.425 Y150.846 E0.01874
G1 X140.845 Y150.907 E0.01828
G1 X140.250 Y150.852 E0.01874
G1 X139.691 Y150.687 E0.01828
G1 X139.162 Y150.408 E0.01874
G1 X138.712 Y150.043 E0.01819
G1 X138.339 Y149.599 E0.01819
G1 X138.050 Y149.072 E0.01883
G1 X137.872 Y148.499 E0.01883
G1 X137.811 Y147.919 E0.01828
G1 X137.865 Y147.324 E0.01874
G1 X138.031 Y146.767 E0.01822
G1 X138.302 Y146.247 E0.01837
G1 X138.675 Y145.784 E0.01865
G1 X139.136 Y145.401 E0.01880
G1 X139.216 Y145.357 E0.00288
G1 X138.712 Y144.963 E0.02007
G1 X138.339 Y144.519 E0.01819
G1 X138.050 Y143.992 E0.01883
G1 X137.872 Y143.419 E0.01883
G1 X137.811 Y142.839 E0.01828
G1 X137.865 Y142.244 E0.01874
G1 X138.031 Y141.685 E0.01828
G1 X138.309 Y141.156 E0.01874
G1 X138.676 Y140.703 E0.01828
G1 X139.136 Y140.321 E0.01874
G1 X139.648 Y140.042 E0.01828
G1 X140.163 Y139.883 E0.01689
G1 X140.274 Y140.243 F10800.000
G1 F1200
G1 X140.808 Y140.183 E0.01682
G1 X141.323 Y140.231 E0.01623
G1 X141.809 Y140.375 E0.01589
G1 X142.263 Y140.612 E0.01606
G1 X142.668 Y140.938 E0.01630
G1 X143.003 Y141.342 E0.01645
G1 X143.245 Y141.787 E0.01589
G1 X143.398 Y142.270 E0.01589
G1 X143.455 Y142.790 E0.01641
G1 X143.410 Y143.297 E0.01595
G1 X143.264 Y143.800 E0.01641
G1 X143.029 Y144.251 E0.01595
G1 X142.700 Y144.661 E0.01647
G1 X142.296 Y144.997 E0.01647
G1 X141.849 Y145.240 E0.01595
G1 X141.474 Y145.356 E0.01230
G1 X141.810 Y145.456 E0.01099
G1 X142.273 Y145.699 E0.01641
G1 X142.669 Y146.019 E0.01595
G1 X143.003 Y146.422 E0.01641
G1 X143.245 Y146.867 E0.01589
G1 X143.398 Y147.350 E0.01589
G1 X143.455 Y147.870 E0.01641
G1 X143.410 Y148.377 E0.01595
G1 X143.264 Y148.880 E0.01641
G1 X143.029 Y149.331 E0.01595
G1 X142.700 Y149.741 E0.01647
G1 X142.296 Y150.077 E0.01647
G1 X141.849 Y150.320 E0.01595
G1 X141.349 Y150.475 E0.01641
G1 X140.843 Y150.528 E0.01595
G1 X140.322 Y150.480 E0.01641
G1 X139.834 Y150.336 E0.01595
G1 X139.371 Y150.092 E0.01641
G1 X138.977 Y149.773 E0.01589
G1 X138.651 Y149.385 E0.01589
G1 X138.399 Y148.924 E0.01647
G1 X138.243 Y148.422 E0.01647
G1 X138.190 Y147.916 E0.01595
G1 X138.238 Y147.395 E0.01641
G1 X138.382 Y146.909 E0.01591
G1 X138.619 Y146.455 E0.01606
G1 X138.945 Y146.050 E0.01630
G1 X139.348 Y145.714 E0.01645
G1 X139.795 Y145.472 E0.01595
G1 X140.170 Y145.355 E0.01230
G1 X139.834 Y145.256 E0.01099
G1 X139.371 Y145.012 E0.01641
G1 X138.977 Y144.693 E0.01589
G1 X138.651 Y144.305 E0.01589
G1 X138.399 Y143.844 E0.01647
G1 X138.243 Y143.342 E0.01647
G1 X138.190 Y142.836 E0.01595
G1 X138.238 Y142.315 E0.01641
G1 X138.382 Y141.827 E0.01595
G1 X138.626 Y141.364 E0.01641
G1 X138.946 Y140.969 E0.01595
G1 X139.348 Y140.634 E0.01641
G1 X139.795 Y140.392 E0.01595
G1 X140.217 Y140.261 E0.01384
G1 F8640
G1 X140.808 Y140.183 E-0.13751
G1 X141.323 Y140.231 E-0.11955
G1 X141.809 Y140.375 E-0.11701
G1 X142.263 Y140.612 E-0.11827
G1 X142.668 Y140.938 E-0.12004
G1 X143.003 Y141.342 E-0.12116
G1 X143.058 Y141.442 E-0.02646
G1 E-0.04000 F2100.00000
G1 Z0.800 F10800.000
G1 X140.775 Y145.646
G1 Z0.200
G1 E0.80000 F2100.00000
G1 F1200
G1 X141.251 Y145.683 E0.01498
G1 X141.668 Y145.807 E0.01361
G1 X142.065 Y146.016 E0.01408
G1 X142.403 Y146.289 E0.01363
G1 X142.690 Y146.634 E0.01408
G1 X142.897 Y147.015 E0.01358
G1 X143.027 Y147.428 E0.01358
G1 X143.076 Y147.875 E0.01408
G1 X143.038 Y148.308 E0.01363
G1 X142.912 Y148.739 E0.01408
G1 X142.711 Y149.124 E0.01363
G1 X142.430 Y149.475 E0.01412
G1 X142.083 Y149.763 E0.01412
G1 X141.702 Y149.971 E0.01363
G1 X141.273 Y150.104 E0.01408
G1 X140.841 Y150.149 E0.01363
G1 X140.393 Y150.108 E0.01408
G1 X139.977 Y149.985 E0.01363
G1 X139.579 Y149.776 E0.01408
G1 X139.243 Y149.503 E0.01358
G1 X138.964 Y149.171 E0.01358
G1 X138.748 Y148.776 E0.01412
G1 X138.614 Y148.346 E0.01412
G1 X138.569 Y147.914 E0.01363
G1 X138.610 Y147.467 E0.01408
G1 X138.733 Y147.051 E0.01360
G1 X138.936 Y146.662 E0.01375
G1 X139.215 Y146.316 E0.01395
G1 X139.561 Y146.028 E0.01411
G1 X139.943 Y145.821 E0.01363
G1 X140.372 Y145.687 E0.01409
G1 X140.715 Y145.652 E0.01082
G1 X140.754 Y146.027 F10800.000
G1 F1200
G1 X141.180 Y146.055 E0.01337
G1 X141.525 Y146.158 E0.01129
G1 X141.856 Y146.332 E0.01175
G1 X142.136 Y146.559 E0.01130
G1 X142.376 Y146.847 E0.01175
G1 X142.548 Y147.163 E0.01128
G1 X142.656 Y147.506 E0.01128
G1 X142.697 Y147.879 E0.01175
G1 X142.665 Y148.238 E0.01130
G1 X142.561 Y148.597 E0.01175
G1 X142.394 Y148.917 E0.01130
G1 X142.159 Y149.210 E0.01176
G1 X141.871 Y149.450 E0.01176
G1 X141.554 Y149.621 E0.01130
G1 X141.196 Y149.733 E0.01175
G1 X140.838 Y149.770 E0.01130
G1 X140.465 Y149.736 E0.01175
G1 X140.119 Y149.634 E0.01130
G1 X139.788 Y149.459 E0.01175
G1 X139.508 Y149.233 E0.01128
G1 X139.277 Y148.957 E0.01128
G1 X139.096 Y148.628 E0.01176
G1 X138.985 Y148.270 E0.01176
G1 X138.948 Y147.911 E0.01130
G1 X138.982 Y147.538 E0.01175
G1 X139.084 Y147.193 E0.01129
G1 X139.253 Y146.870 E0.01144
G1 X139.485 Y146.581 E0.01161
G1 X139.773 Y146.342 E0.01176
G1 X140.090 Y146.170 E0.01130
G1 X140.448 Y146.059 E0.01175
G1 X140.694 Y146.033 E0.00776
G1 X140.945 Y145.675 F10800.000
G1 X140.783 Y145.064
G1 F1200
G1 X140.393 Y145.028 E0.01228
G1 X139.977 Y144.905 E0.01363
G1 X139.579 Y144.696 E0.01408
G1 X139.243 Y144.423 E0.01358
G1 X138.964 Y144.091 E0.01358
G1 X138.748 Y143.696 E0.01412
G1 X138.614 Y143.266 E0.01412
G1 X138.569 Y142.834 E0.01363
G1 X138.610 Y142.387 E0.01408
G1 X138.733 Y141.970 E0.01363
G1 X138.942 Y141.573 E0.01408
G1 X139.216 Y141.235 E0.01363
G1 X139.561 Y140.948 E0.01408
G1 X139.943 Y140.741 E0.01363
G1 X140.372 Y140.607 E0.01409
G1 X140.809 Y140.562 E0.01379
G1 X141.251 Y140.603 E0.01391
G1 X141.667 Y140.726 E0.01359
G1 X142.055 Y140.929 E0.01375
G1 X142.402 Y141.208 E0.01395
G1 X142.690 Y141.554 E0.01411
G1 X142.897 Y141.935 E0.01358
G1 X143.027 Y142.348 E0.01358
G1 X143.076 Y142.795 E0.01408
G1 X143.038 Y143.228 E0.01363
G1 X142.912 Y143.659 E0.01408
G1 X142.711 Y144.044 E0.01363
G1 X142.430 Y144.395 E0.01412
G1 X142.083 Y144.683 E0.01412
G1 X141.702 Y144.891 E0.01363
G1 X141.273 Y145.024 E0.01408
G1 X140.843 Y145.069 E0.01354
G1 X140.838 Y144.690 F10800.000
G1 F1200
G1 X140.465 Y144.656 E0.01175
G1 X140.119 Y144.554 E0.01130
G1 X139.788 Y144.379 E0.01175
G1 X139.508 Y144.153 E0.01128
G1 X139.277 Y143.877 E0.01128
G1 X139.096 Y143.548 E0.01176
G1 X138.985 Y143.190 E0.01176
G1 X138.948 Y142.831 E0.01130
G1 X138.982 Y142.458 E0.01175
G1 X139.084 Y142.113 E0.01130
G1 X139.259 Y141.781 E0.01175
G1 X139.485 Y141.501 E0.01130
G1 X139.773 Y141.262 E0.01175
G1 X140.090 Y141.090 E0.01130
G1 X140.448 Y140.979 E0.01175
G1 X140.811 Y140.941 E0.01145
G1 X141.180 Y140.975 E0.01159
G1 X141.525 Y141.077 E0.01128
G1 X141.848 Y141.246 E0.01144
G1 X142.136 Y141.479 E0.01161
G1 X142.376 Y141.767 E0.01176
G1 X142.548 Y142.083 E0.01128
G1 X142.656 Y142.426 E0.01128
G1 X142.697 Y142.799 E0.01175
G1 X142.665 Y143.158 E0.01130
G1 X142.561 Y143.517 E0.01175
G1 X142.394 Y143.837 E0.01130
G1 X142.159 Y144.130 E0.01176
G1 X141.871 Y144.370 E0.01176
G1 X141.554 Y144.541 E0.01130
G1 X141.196 Y144.653 E0.01175
G1 X140.898 Y144.684 E0.00942
G1 X140.653 Y145.016 F10800.000
G1 F8640
G1 X140.465 Y144.656 E-0.10015
G1 X140.119 Y144.554 E-0.08319
G1 X139.788 Y144.379 E-0.08653
G1 X139.508 Y144.153 E-0.08308
G1 X139.277 Y143.877 E-0.08308
G1 X139.096 Y143.548 E-0.08663
G1 X138.985 Y143.190 E-0.08663
G1 X138.948 Y142.831 E-0.08319
G1 X138.974 Y142.540 E-0.06751
G1 E-0.04000 F2100.00000
G1 Z0.800 F10800.000
G1 X138.095 Y145.545
G1 Z0.200
G1 E0.80000 F2100.00000
G1 F1200
G1 X138.095 Y144.816 E0.02286
G1 X138.446 Y145.233 E0.01710
G1 X138.599 Y145.357 E0.00615
G1 X138.405 Y145.518 E0.00791
G1 X138.095 Y145.902 E0.01546
G1 X138.095 Y145.605 E0.00933
G1 F8640
G1 X138.095 Y144.816 E-0.18223
G1 X138.446 Y145.233 E-0.12595
G1 X138.599 Y145.357 E-0.04531
G1 X138.405 Y145.518 E-0.05824
G1 X138.095 Y145.902 E-0.11386
G1 X138.095 Y145.605 E-0.06870
G1 E-0.20571 F2100.00000
G1 Z0.800 F10800.000
G1 X156.915 Y147.334
G1 Z0.200
G1 E0.80000 F2100.00000
G1 F1200
G1 X157.081 Y146.767 E0.01853
G1 X157.352 Y146.247 E0.01837
G1 X157.725 Y145.784 E0.01865
G1 X158.186 Y145.401 E0.01880
G1 X158.698 Y145.122 E0.01828
G1 X159.270 Y144.945 E0.01877
G1 X159.856 Y144.884 E0.01846
G1 X160.445 Y144.939 E0.01855
G1 X161.003 Y145.105 E0.01825
G1 X161.532 Y145.383 E0.01874
G1 X161.985 Y145.750 E0.01828
G1 X162.367 Y146.209 E0.01874
G1 X162.645 Y146.722 E0.01828
G1 X162.823 Y147.292 E0.01874
G1 X162.883 Y147.872 E0.01828
G1 X162.829 Y148.467 E0.01874
G1 X162.663 Y149.026 E0.01828
G1 X162.385 Y149.555 E0.01874
G1 X162.018 Y150.008 E0.01828
G1 X161.559 Y150.391 E0.01874
G1 X161.046 Y150.669 E0.01828
G1 X160.475 Y150.846 E0.01874
G1 X159.895 Y150.907 E0.01828
G1 X159.300 Y150.852 E0.01874
G1 X158.741 Y150.687 E0.01828
G1 X158.212 Y150.408 E0.01874
G1 X157.759 Y150.041 E0.01828
G1 X157.377 Y149.582 E0.01874
G1 X157.100 Y149.072 E0.01819
G1 X156.926 Y148.519 E0.01819
G1 X156.861 Y147.922 E0.01883
G1 X156.909 Y147.394 E0.01663
G1 X157.285 Y147.428 F10800.000
G1 F1200
G1 X157.432 Y146.909 E0.01693
G1 X157.669 Y146.455 E0.01606
G1 X157.995 Y146.050 E0.01630
G1 X158.398 Y145.714 E0.01645
G1 X158.845 Y145.472 E0.01595
G1 X159.346 Y145.316 E0.01643
G1 X159.858 Y145.263 E0.01613
G1 X160.373 Y145.311 E0.01623
G1 X160.860 Y145.456 E0.01593
G1 X161.323 Y145.699 E0.01641
G1 X161.719 Y146.019 E0.01595
G1 X162.053 Y146.422 E0.01641
G1 X162.296 Y146.869 E0.01595
G1 X162.451 Y147.369 E0.01641
G1 X162.505 Y147.875 E0.01595
G1 X162.457 Y148.396 E0.01641
G1 X162.312 Y148.884 E0.01595
G1 X162.069 Y149.347 E0.01641
G1 X161.748 Y149.742 E0.01595
G1 X161.346 Y150.077 E0.01641
G1 X160.899 Y150.320 E0.01595
G1 X160.399 Y150.475 E0.01641
G1 X159.893 Y150.528 E0.01595
G1 X159.372 Y150.480 E0.01641
G1 X158.884 Y150.336 E0.01595
G1 X158.421 Y150.092 E0.01641
G1 X158.025 Y149.772 E0.01595
G1 X157.691 Y149.369 E0.01641
G1 X157.449 Y148.924 E0.01589
G1 X157.297 Y148.441 E0.01589
G1 X157.240 Y147.919 E0.01647
G1 X157.279 Y147.488 E0.01356
G1 X157.655 Y147.522 F10800.000
G1 F1200
G1 X157.783 Y147.051 E0.01532
G1 X157.986 Y146.662 E0.01375
G1 X158.265 Y146.316 E0.01395
G1 X158.611 Y146.028 E0.01411
G1 X158.993 Y145.821 E0.01363
G1 X159.422 Y145.687 E0.01409
G1 X159.859 Y145.642 E0.01379
G1 X160.301 Y145.683 E0.01391
G1 X160.718 Y145.807 E0.01361
G1 X161.115 Y146.016 E0.01408
G1 X161.453 Y146.289 E0.01363
G1 X161.740 Y146.634 E0.01408
G1 X161.947 Y147.016 E0.01363
G1 X162.080 Y147.445 E0.01408
G1 X162.126 Y147.877 E0.01363
G1 X162.085 Y148.324 E0.01408
G1 X161.961 Y148.741 E0.01363
G1 X161.752 Y149.138 E0.01408
G1 X161.479 Y149.476 E0.01363
G1 X161.133 Y149.763 E0.01408
G1 X160.752 Y149.971 E0.01363
G1 X160.323 Y150.104 E0.01408
G1 X159.891 Y150.149 E0.01363
G1 X159.443 Y150.108 E0.01408
G1 X159.027 Y149.985 E0.01363
G1 X158.629 Y149.776 E0.01408
G1 X158.292 Y149.502 E0.01363
G1 X158.005 Y149.157 E0.01408
G1 X157.798 Y148.776 E0.01358
G1 X157.668 Y148.363 E0.01358
G1 X157.618 Y147.915 E0.01412
G1 X157.649 Y147.582 E0.01049
G1 X158.025 Y147.617 F10800.000
G1 F1200
G1 X158.032 Y147.538 E0.00247
G1 X158.134 Y147.193 E0.01129
G1 X158.303 Y146.870 E0.01144
G1 X158.535 Y146.581 E0.01161
G1 X158.823 Y146.342 E0.01176
G1 X159.140 Y146.170 E0.01130
G1 X159.498 Y146.059 E0.01175
G1 X159.861 Y146.021 E0.01145
G1 X160.230 Y146.055 E0.01159
G1 X160.575 Y146.158 E0.01129
G1 X160.906 Y146.332 E0.01175
G1 X161.186 Y146.559 E0.01130
G1 X161.426 Y146.847 E0.01175
G1 X161.598 Y147.163 E0.01130
G1 X161.709 Y147.521 E0.01175
G1 X161.747 Y147.880 E0.01130
G1 X161.713 Y148.253 E0.01175
G1 X161.610 Y148.598 E0.01130
G1 X161.436 Y148.930 E0.01175
G1 X161.209 Y149.210 E0.01130
G1 X160.921 Y149.450 E0.01175
G1 X160.604 Y149.621 E0.01130
G1 X160.246 Y149.733 E0.01175
G1 X159.888 Y149.770 E0.01130
G1 X159.515 Y149.736 E0.01175
G1 X159.169 Y149.634 E0.01130
G1 X158.838 Y149.459 E0.01175
G1 X158.558 Y149.232 E0.01130
G1 X158.318 Y148.944 E0.01175
G1 X158.147 Y148.628 E0.01128
G1 X158.038 Y148.285 E0.01128
G1 X157.997 Y147.912 E0.01176
G1 X158.019 Y147.676 E0.00742
G1 X157.959 Y147.574 F10800.000
G1 F8640
G1 X158.032 Y147.538 E-0.03203
G1 X158.134 Y147.193 E-0.08312
G1 X158.303 Y146.870 E-0.08423
G1 X158.535 Y146.581 E-0.08548
G1 X158.823 Y146.342 E-0.08660
G1 X159.140 Y146.170 E-0.08319
G1 X159.498 Y146.059 E-0.08656
G1 X159.861 Y146.021 E-0.08434
G1 X160.230 Y146.055 E-0.08538
G1 X160.433 Y146.116 E-0.04907
G1 E-0.04000 F2100.00000
G1 Z0.800 F10800.000
G1 X155.875 Y147.676
G1 Z0.200
G1 E0.80000 F2100.00000
G1 F1200
G1 X155.875 Y151.519 E0.12048
G1 X144.819 Y151.519 E0.34667
G1 X144.819 Y144.272 E0.22721
G1 X155.875 Y144.272 E0.34667
G1 X155.875 Y147.616 E0.10485
G1 X155.498 Y147.616 F10800.000
G1 F1200
G1 X155.498 Y151.142 E0.11054
G1 X145.196 Y151.142 E0.32303
G1 X145.196 Y144.649 E0.20357
