; generated by Slic3r Prusa Edition 1.41.2+win64 on 2018-12-02 at 14:16:11

; 

; external perimeters extrusion width = 0.45mm
; perimeters extrusion width = 0.45mm
; infill extrusion width = 0.45mm
; solid infill extrusion width = 0.45mm
; top infill extrusion width = 0.40mm
; first layer extrusion width = 0.42mm

M73 P0 R27
M73 Q0 S27
M201 X1000 Y1000 Z1000 E5000 ; sets maximum accelerations, mm/sec^2
M203 X200 Y200 Z12 E120 ; sets maximum feedrates, mm/sec
M204 P1250 R1250 T1250 ; sets acceleration (P, T) and retract acceleration (R), mm/sec^2
M205 X8.00 Y8.00 Z0.40 E1.50 ; sets the jerk limits, mm/sec
M205 S0 T0 ; sets the minimum extruding and travel feed rate, mm/sec
M107
M115 U3.4.1 ; tell printer latest fw version
M83  ; extruder relative mode
M104 S230 ; set extruder temp
M140 S85 ; set bed temp
M190 S85 ; wait for bed temp
M109 S230 ; wait for extruder temp
G28 W ; home all without mesh bed level
G80 ; mesh bed leveling
G1 Y-3.0 F1000.0 ; go outside print area
G92 E0.0
G1 X60.0 E9.0  F1000.0 ; intro line
M73 Q0 S27
M73 P0 R27
G1 X100.0 E12.5  F1000.0 ; intro line
G92 E0.0
M221 S95
M900 K45; Filament gcode
G21 ; set units to millimeters
G90 ; use absolute coordinates
M83 ; use relative distances for extrusion
;BEFORE_LAYER_CHANGE
G92 E0.0
;0.2


G1 E-0.80000 F2100.00000
G1 Z0.600 F10800.000
;AFTER_LAYER_CHANGE
;0.2
G1 X58.121 Y46.674
G1 Z0.200
G1 E0.80000 F2100.00000
M204 S1000
G1 F1200
G1 X58.654 Y45.940 E0.02844
G1 X59.328 Y45.525 E0.02484
G1 X60.110 Y45.376 E0.02496
G1 X189.884 Y45.376 E4.06895
G1 X190.714 Y45.541 E0.02653
G1 X191.419 Y46.009 E0.02653
G1 X191.894 Y46.709 E0.02653
G1 X192.068 Y47.537 E0.02653
G1 X192.069 Y162.446 E3.60288
G1 X191.878 Y163.329 E0.02833
G1 X191.346 Y164.060 E0.02833
G1 X190.672 Y164.475 E0.02484
G1 X189.890 Y164.624 E0.02496
G1 X60.116 Y164.624 E4.06895
G1 X59.229 Y164.434 E0.02844
G1 X58.495 Y163.901 E0.02844
G1 X58.080 Y163.227 E0.02484
G1 X57.931 Y162.445 E0.02496
G1 X57.931 Y47.561 E3.60208
G1 X58.108 Y46.733 E0.02656
; PURGING FINISHED
G1 F8640
G1 X58.654 Y45.940 E-0.22218
G1 X59.328 Y45.525 E-0.18296
G1 X60.110 Y45.376 E-0.18379
G1 X60.851 Y45.376 E-0.17107
G1 E-0.04000 F2100.00000
G1 Z0.800 F10800.000
G1 X96.819 Y108.220
G1 Z0.200
G1 E0.80000 F2100.00000
G1 F1200
G1 X97.331 Y107.942 E0.01828
G1 X97.903 Y107.764 E0.01877
G1 X98.488 Y107.704 E0.01846
G1 X99.078 Y107.759 E0.01855
G1 X99.634 Y107.923 E0.01819
G1 X100.153 Y108.195 E0.01837
G1 X100.617 Y108.568 E0.01865
G1 X101.000 Y109.029 E0.01880
G1 X101.277 Y109.538 E0.01819
G1 X101.451 Y110.092 E0.01819
G1 X101.516 Y110.686 E0.01874
G1 X101.465 Y111.267 E0.01828
G1 X101.298 Y111.840 E0.01874
G1 X101.029 Y112.358 E0.01828
G1 X100.653 Y112.826 E0.01883
G1 X100.191 Y113.210 E0.01883
G1 X100.111 Y113.254 E0.00288
G1 X100.618 Y113.649 E0.02016
G1 X101.000 Y114.109 E0.01874
G1 X101.277 Y114.618 E0.01819
G1 X101.451 Y115.172 E0.01819
G1 X101.516 Y115.766 E0.01874
G1 X101.465 Y116.347 E0.01828
G1 X101.298 Y116.920 E0.01874
G1 X101.029 Y117.438 E0.01828
G1 X100.653 Y117.906 E0.01883
G1 X100.191 Y118.290 E0.01883
G1 X99.679 Y118.568 E0.01828
G1 X99.108 Y118.745 E0.01874
G1 X98.528 Y118.806 E0.01828
G1 X97.933 Y118.752 E0.01874
G1 X97.374 Y118.586 E0.01828
G1 X96.845 Y118.308 E0.01874
G1 X96.394 Y117.943 E0.01819
G1 X96.022 Y117.498 E0.01819
G1 X95.733 Y116.972 E0.01883
G1 X95.555 Y116.398 E0.01883
G1 X95.494 Y115.818 E0.01828
G1 X95.548 Y115.223 E0.01874
G1 X95.713 Y114.666 E0.01822
G1 X95.985 Y114.147 E0.01837
G1 X96.358 Y113.683 E0.01865
G1 X96.819 Y113.300 E0.01880
G1 X96.899 Y113.256 E0.00288
G1 X96.394 Y112.863 E0.02007
G1 X96.022 Y112.418 E0.01819
G1 X95.733 Y111.892 E0.01883
G1 X95.555 Y111.318 E0.01883
G1 X95.494 Y110.738 E0.01828
G1 X95.548 Y110.143 E0.01874
G1 X95.714 Y109.584 E0.01828
G1 X95.992 Y109.055 E0.01874
G1 X96.359 Y108.602 E0.01828
G1 X96.772 Y108.258 E0.01685
G1 X97.014 Y108.548 F10800.000
G1 F1200
G1 X97.478 Y108.291 E0.01666
G1 X97.979 Y108.136 E0.01643
G1 X98.490 Y108.083 E0.01613
G1 X99.006 Y108.131 E0.01623
G1 X99.492 Y108.275 E0.01589
G1 X99.946 Y108.512 E0.01606
G1 X100.351 Y108.838 E0.01630
G1 X100.686 Y109.241 E0.01645
G1 X100.928 Y109.686 E0.01589
G1 X101.080 Y110.170 E0.01589
G1 X101.137 Y110.690 E0.01641
G1 X101.093 Y111.197 E0.01595
G1 X100.947 Y111.699 E0.01641
G1 X100.712 Y112.151 E0.01595
G1 X100.383 Y112.560 E0.01647
G1 X99.979 Y112.896 E0.01647
G1 X99.532 Y113.139 E0.01595
G1 X99.157 Y113.255 E0.01230
G1 X99.493 Y113.355 E0.01099
G1 X99.956 Y113.599 E0.01641
G1 X100.352 Y113.919 E0.01595
G1 X100.686 Y114.321 E0.01641
G1 X100.928 Y114.766 E0.01589
G1 X101.080 Y115.250 E0.01589
G1 X101.137 Y115.770 E0.01641
G1 X101.093 Y116.277 E0.01595
G1 X100.947 Y116.779 E0.01641
G1 X100.712 Y117.231 E0.01595
G1 X100.383 Y117.640 E0.01647
G1 X99.979 Y117.976 E0.01647
G1 X99.532 Y118.219 E0.01595
G1 X99.032 Y118.374 E0.01641
G1 X98.526 Y118.427 E0.01595
G1 X98.005 Y118.380 E0.01641
G1 X97.517 Y118.235 E0.01595
G1 X97.054 Y117.991 E0.01641
G1 X96.660 Y117.672 E0.01589
G1 X96.334 Y117.284 E0.01589
G1 X96.082 Y116.824 E0.01647
G1 X95.926 Y116.322 E0.01647
G1 X95.873 Y115.816 E0.01595
G1 X95.920 Y115.295 E0.01641
G1 X96.065 Y114.808 E0.01591
G1 X96.302 Y114.354 E0.01606
G1 X96.628 Y113.949 E0.01630
G1 X97.031 Y113.614 E0.01645
G1 X97.478 Y113.371 E0.01595
G1 X97.853 Y113.255 E0.01230
G1 X97.517 Y113.155 E0.01099
G1 X97.054 Y112.911 E0.01641
G1 X96.660 Y112.592 E0.01589
G1 X96.334 Y112.204 E0.01589
G1 X96.082 Y111.744 E0.01647
G1 X95.926 Y111.242 E0.01647
G1 X95.873 Y110.736 E0.01595
G1 X95.920 Y110.215 E0.01641
G1 X96.065 Y109.727 E0.01595
G1 X96.309 Y109.264 E0.01641
G1 X96.629 Y108.868 E0.01595
G1 X96.967 Y108.587 E0.01381
G1 F8640
G1 X97.478 Y108.291 E-0.13631
G1 X97.979 Y108.136 E-0.12100
G1 X98.490 Y108.083 E-0.11876
G1 X99.006 Y108.131 E-0.11955
G1 X99.492 Y108.275 E-0.11701
G1 X99.946 Y108.512 E-0.11827
G1 X100.044 Y108.591 E-0.02910
G1 E-0.04000 F2100.00000
G1 Z0.800 F10800.000
G1 X98.055 Y113.587
G1 Z0.200
G1 E0.80000 F2100.00000
G1 F1200
G1 X98.492 Y113.541 E0.01379
G1 X98.934 Y113.583 E0.01391
G1 X99.350 Y113.706 E0.01361
G1 X99.748 Y113.915 E0.01408
G1 X100.085 Y114.189 E0.01363
G1 X100.373 Y114.534 E0.01408
G1 X100.579 Y114.914 E0.01358
G1 X100.710 Y115.328 E0.01358
G1 X100.759 Y115.774 E0.01408
G1 X100.721 Y116.207 E0.01363
G1 X100.595 Y116.638 E0.01408
G1 X100.394 Y117.023 E0.01363
G1 X100.112 Y117.375 E0.01412
G1 X99.766 Y117.663 E0.01412
G1 X99.384 Y117.870 E0.01363
G1 X98.956 Y118.003 E0.01408
G1 X98.523 Y118.049 E0.01363
G1 X98.076 Y118.007 E0.01408
G1 X97.660 Y117.884 E0.01363
G1 X97.262 Y117.675 E0.01408
G1 X96.926 Y117.402 E0.01358
G1 X96.647 Y117.070 E0.01358
G1 X96.430 Y116.676 E0.01412
G1 X96.297 Y116.246 E0.01412
G1 X96.251 Y115.813 E0.01363
G1 X96.293 Y115.366 E0.01408
G1 X96.416 Y114.950 E0.01360
G1 X96.619 Y114.562 E0.01375
G1 X96.898 Y114.215 E0.01395
G1 X97.244 Y113.927 E0.01411
G1 X97.626 Y113.720 E0.01363
G1 X97.998 Y113.605 E0.01221
G1 X98.109 Y113.965 F10800.000
G1 F1200
G1 X98.494 Y113.920 E0.01215
G1 X98.862 Y113.955 E0.01159
G1 X99.208 Y114.057 E0.01129
G1 X99.539 Y114.231 E0.01175
G1 X99.819 Y114.458 E0.01130
G1 X100.059 Y114.746 E0.01175
G1 X100.231 Y115.063 E0.01128
G1 X100.339 Y115.406 E0.01128
G1 X100.380 Y115.778 E0.01175
G1 X100.348 Y116.137 E0.01130
G1 X100.243 Y116.497 E0.01175
G1 X100.077 Y116.816 E0.01130
G1 X99.842 Y117.109 E0.01176
G1 X99.554 Y117.349 E0.01176
G1 X99.237 Y117.521 E0.01130
G1 X98.879 Y117.632 E0.01175
G1 X98.521 Y117.670 E0.01130
G1 X98.148 Y117.635 E0.01175
G1 X97.802 Y117.533 E0.01130
G1 X97.471 Y117.359 E0.01175
G1 X97.191 Y117.132 E0.01128
G1 X96.960 Y116.856 E0.01128
G1 X96.779 Y116.528 E0.01176
G1 X96.668 Y116.169 E0.01176
G1 X96.630 Y115.811 E0.01130
G1 X96.665 Y115.438 E0.01175
G1 X96.767 Y115.093 E0.01129
G1 X96.936 Y114.769 E0.01144
G1 X97.168 Y114.481 E0.01161
G1 X97.456 Y114.241 E0.01176
G1 X97.773 Y114.069 E0.01130
G1 X98.052 Y113.982 E0.00917
G1 X98.229 Y113.596 F10800.000
G1 F8640
G1 X98.494 Y113.920 E-0.10310
G1 X98.862 Y113.955 E-0.08538
G1 X99.208 Y114.057 E-0.08316
G1 X99.539 Y114.231 E-0.08653
G1 X99.819 Y114.458 E-0.08319
G1 X100.059 Y114.746 E-0.08653
G1 X100.231 Y115.063 E-0.08308
G1 X100.339 Y115.406 E-0.08308
G1 X100.370 Y115.690 E-0.06595
G1 E-0.04000 F2100.00000
G1 Z0.800 F10800.000
G1 X98.148 Y112.934
G1 Z0.200
G1 E0.80000 F2100.00000
G1 F1200
G1 X97.660 Y112.804 E0.01586
G1 X97.262 Y112.595 E0.01408
G1 X96.926 Y112.322 E0.01358
G1 X96.647 Y111.990 E0.01358
G1 X96.430 Y111.596 E0.01412
G1 X96.297 Y111.166 E0.01412
G1 X96.251 Y110.733 E0.01363
G1 X96.293 Y110.286 E0.01408
G1 X96.416 Y109.870 E0.01363
G1 X96.625 Y109.472 E0.01408
G1 X96.899 Y109.135 E0.01363
G1 X97.244 Y108.847 E0.01408
G1 X97.626 Y108.640 E0.01363
G1 X98.055 Y108.507 E0.01409
G1 X98.492 Y108.461 E0.01379
G1 X98.934 Y108.503 E0.01391
G1 X99.350 Y108.626 E0.01359
G1 X99.738 Y108.829 E0.01375
G1 X100.085 Y109.108 E0.01395
G1 X100.373 Y109.454 E0.01411
G1 X100.579 Y109.834 E0.01358
G1 X100.710 Y110.248 E0.01358
G1 X100.759 Y110.694 E0.01408
G1 X100.721 Y111.127 E0.01363
G1 X100.595 Y111.558 E0.01408
G1 X100.394 Y111.943 E0.01363
G1 X100.112 Y112.295 E0.01412
G1 X99.766 Y112.583 E0.01412
G1 X99.384 Y112.790 E0.01363
G1 X98.956 Y112.923 E0.01408
G1 X98.523 Y112.969 E0.01363
G1 X98.208 Y112.940 E0.00993
G1 X98.243 Y112.564 F10800.000
G1 F1200
G1 X98.148 Y112.555 E0.00299
G1 X97.802 Y112.453 E0.01130
G1 X97.471 Y112.279 E0.01175
G1 X97.191 Y112.052 E0.01128
G1 X96.960 Y111.776 E0.01128
G1 X96.779 Y111.448 E0.01176
G1 X96.668 Y111.089 E0.01176
G1 X96.630 Y110.731 E0.01130
G1 X96.665 Y110.358 E0.01175
G1 X96.767 Y110.012 E0.01130
G1 X96.941 Y109.681 E0.01175
G1 X97.168 Y109.401 E0.01130
G1 X97.456 Y109.161 E0.01175
G1 X97.773 Y108.989 E0.01130
G1 X98.131 Y108.878 E0.01175
G1 X98.494 Y108.840 E0.01145
G1 X98.862 Y108.875 E0.01159
G1 X99.207 Y108.977 E0.01128
G1 X99.531 Y109.146 E0.01144
G1 X99.819 Y109.378 E0.01161
G1 X100.059 Y109.666 E0.01176
G1 X100.231 Y109.983 E0.01128
G1 X100.339 Y110.326 E0.01128
G1 X100.380 Y110.698 E0.01175
G1 X100.348 Y111.057 E0.01130
G1 X100.243 Y111.417 E0.01175
G1 X100.077 Y111.736 E0.01130
G1 X99.842 Y112.029 E0.01176
G1 X99.554 Y112.269 E0.01176
G1 X99.237 Y112.441 E0.01130
G1 X98.879 Y112.552 E0.01175
G1 X98.521 Y112.590 E0.01130
G1 X98.302 Y112.570 E0.00688
G1 X98.191 Y112.644 F10800.000
G1 F8640
G1 X98.148 Y112.555 E-0.03586
G1 X97.802 Y112.453 E-0.08319
G1 X97.471 Y112.279 E-0.08653
G1 X97.191 Y112.052 E-0.08308
G1 X96.960 Y111.776 E-0.08308
G1 X96.779 Y111.448 E-0.08663
G1 X96.668 Y111.089 E-0.08663
G1 X96.630 Y110.731 E-0.08319
G1 X96.665 Y110.358 E-0.08653
G1 X96.720 Y110.170 E-0.04527
G1 E-0.04000 F2100.00000
G1 Z0.800 F10800.000
G1 X95.778 Y113.444
G1 Z0.200
G1 E0.80000 F2100.00000
G1 F1200
G1 X95.778 Y112.715 E0.02286
G1 X96.129 Y113.133 E0.01710
G1 X96.281 Y113.256 E0.00615
G1 X96.088 Y113.418 E0.00791
G1 X95.778 Y113.802 E0.01546
G1 X95.778 Y113.504 E0.00933
G1 F8640
G1 X95.778 Y112.715 E-0.18223
G1 X96.129 Y113.133 E-0.12595
G1 X96.281 Y113.256 E-0.04531
G1 X96.088 Y113.418 E-0.05824
G1 X95.778 Y113.802 E-0.11386
G1 X95.778 Y113.504 E-0.06870
G1 E-0.20571 F2100.00000
G1 Z0.800 F10800.000
G1 X114.597 Y115.233
G1 Z0.200
G1 E0.80000 F2100.00000
G1 F1200
G1 X114.763 Y114.666 E0.01853
G1 X115.035 Y114.147 E0.01837
G1 X115.408 Y113.683 E0.01865
G1 X115.869 Y113.300 E0.01880
G1 X116.381 Y113.022 E0.01828
G1 X116.953 Y112.844 E0.01877
G1 X117.538 Y112.784 E0.01846
G1 X118.128 Y112.839 E0.01855
G1 X118.686 Y113.004 E0.01825
G1 X119.215 Y113.282 E0.01874
G1 X119.668 Y113.649 E0.01828
G1 X120.050 Y114.109 E0.01874
G1 X120.328 Y114.621 E0.01828
G1 X120.505 Y115.192 E0.01874
G1 X120.566 Y115.772 E0.01828
G1 X120.512 Y116.367 E0.01874
G1 X120.346 Y116.926 E0.01828
G1 X120.068 Y117.455 E0.01874
G1 X119.701 Y117.908 E0.01828
G1 X119.241 Y118.290 E0.01874
G1 X118.729 Y118.568 E0.01828
G1 X118.158 Y118.745 E0.01874
G1 X117.578 Y118.806 E0.01828
G1 X116.983 Y118.752 E0.01874
G1 X116.424 Y118.586 E0.01828
G1 X115.895 Y118.308 E0.01874
G1 X115.442 Y117.941 E0.01828
G1 X115.060 Y117.481 E0.01874
G1 X114.783 Y116.972 E0.01819
G1 X114.609 Y116.418 E0.01819
G1 X114.543 Y115.821 E0.01883
G1 X114.592 Y115.293 E0.01663
G1 X114.967 Y115.328 F10800.000
G1 F1200
G1 X115.115 Y114.808 E0.01693
G1 X115.352 Y114.354 E0.01606
G1 X115.678 Y113.949 E0.01630
G1 X116.081 Y113.614 E0.01645
G1 X116.528 Y113.371 E0.01595
G1 X117.029 Y113.216 E0.01643
G1 X117.540 Y113.163 E0.01613
G1 X118.056 Y113.211 E0.01623
G1 X118.543 Y113.355 E0.01593
G1 X119.006 Y113.599 E0.01641
G1 X119.402 Y113.919 E0.01595
G1 X119.736 Y114.321 E0.01641
G1 X119.979 Y114.768 E0.01595
G1 X120.134 Y115.268 E0.01641
G1 X120.187 Y115.774 E0.01595
G1 X120.140 Y116.295 E0.01641
G1 X119.995 Y116.783 E0.01595
G1 X119.751 Y117.246 E0.01641
G1 X119.431 Y117.642 E0.01595
G1 X119.029 Y117.976 E0.01641
G1 X118.582 Y118.219 E0.01595
G1 X118.082 Y118.374 E0.01641
G1 X117.576 Y118.427 E0.01595
G1 X117.055 Y118.380 E0.01641
G1 X116.567 Y118.235 E0.01595
G1 X116.104 Y117.991 E0.01641
G1 X115.708 Y117.671 E0.01595
G1 X115.374 Y117.269 E0.01641
G1 X115.132 Y116.824 E0.01589
G1 X114.980 Y116.340 E0.01589
G1 X114.922 Y115.818 E0.01647
G1 X114.962 Y115.387 E0.01356
G1 X115.337 Y115.422 F10800.000
G1 F1200
G1 X115.466 Y114.950 E0.01532
G1 X115.669 Y114.562 E0.01375
G1 X115.948 Y114.215 E0.01395
G1 X116.294 Y113.927 E0.01411
G1 X116.676 Y113.720 E0.01363
G1 X117.105 Y113.587 E0.01409
G1 X117.542 Y113.541 E0.01379
G1 X117.984 Y113.583 E0.01391
G1 X118.400 Y113.706 E0.01361
G1 X118.798 Y113.915 E0.01408
G1 X119.136 Y114.189 E0.01363
G1 X119.423 Y114.534 E0.01408
G1 X119.630 Y114.916 E0.01363
G1 X119.763 Y115.344 E0.01408
G1 X119.809 Y115.777 E0.01363
G1 X119.767 Y116.224 E0.01408
G1 X119.644 Y116.640 E0.01363
G1 X119.435 Y117.038 E0.01408
G1 X119.161 Y117.375 E0.01363
G1 X118.816 Y117.663 E0.01408
G1 X118.434 Y117.870 E0.01363
G1 X118.006 Y118.003 E0.01408
G1 X117.573 Y118.049 E0.01363
G1 X117.126 Y118.007 E0.01408
G1 X116.710 Y117.884 E0.01363
G1 X116.312 Y117.675 E0.01408
G1 X115.975 Y117.401 E0.01363
G1 X115.687 Y117.056 E0.01408
G1 X115.481 Y116.676 E0.01358
G1 X115.350 Y116.262 E0.01358
G1 X115.301 Y115.815 E0.01412
G1 X115.332 Y115.482 E0.01049
G1 X115.707 Y115.516 F10800.000
G1 F1200
G1 X115.715 Y115.438 E0.00247
G1 X115.817 Y115.093 E0.01129
G1 X115.986 Y114.769 E0.01144
G1 X116.218 Y114.481 E0.01161
G1 X116.506 Y114.241 E0.01176
G1 X116.823 Y114.069 E0.01130
G1 X117.181 Y113.958 E0.01175
G1 X117.544 Y113.920 E0.01145
G1 X117.912 Y113.955 E0.01159
G1 X118.258 Y114.057 E0.01129
G1 X118.589 Y114.231 E0.01175
G1 X118.869 Y114.458 E0.01130
G1 X119.109 Y114.746 E0.01175
G1 X119.281 Y115.063 E0.01130
G1 X119.392 Y115.421 E0.01175
G1 X119.430 Y115.779 E0.01130
G1 X119.395 Y116.152 E0.01175
G1 X119.293 Y116.498 E0.01130
G1 X119.119 Y116.829 E0.01175
G1 X118.892 Y117.109 E0.01130
G1 X118.604 Y117.349 E0.01175
G1 X118.287 Y117.521 E0.01130
G1 X117.929 Y117.632 E0.01175
G1 X117.571 Y117.670 E0.01130
G1 X117.198 Y117.635 E0.01175
G1 X116.852 Y117.533 E0.01130
G1 X116.521 Y117.359 E0.01175
G1 X116.241 Y117.132 E0.01130
G1 X116.001 Y116.844 E0.01175
G1 X115.829 Y116.527 E0.01128
G1 X115.721 Y116.184 E0.01128
G1 X115.680 Y115.811 E0.01176
G1 X115.702 Y115.576 E0.00742
G1 X115.642 Y115.473 F10800.000
G1 F8640
G1 X115.715 Y115.438 E-0.03203
G1 X115.817 Y115.093 E-0.08312
G1 X115.986 Y114.769 E-0.08423
G1 X116.218 Y114.481 E-0.08548
G1 X116.506 Y114.241 E-0.08660
G1 X116.823 Y114.069 E-0.08319
G1 X117.181 Y113.958 E-0.08656
G1 X117.544 Y113.920 E-0.08434
G1 X117.912 Y113.955 E-0.08538
G1 X118.116 Y114.015 E-0.04907
G1 E-0.04000 F2100.00000
G1 Z0.800 F10800.000
G1 X113.558 Y115.576
G1 Z0.200
G1 E0.80000 F2100.00000
G1 F1200
G1 X113.558 Y119.418 E0.12048
G1 X102.502 Y119.418 E0.34667
G1 X102.502 Y112.172 E0.22721
G1 X113.558 Y112.172 E0.34667
G1 X113.558 Y115.516 E0.10485
G1 X113.181 Y115.516 F10800.000
G1 F1200
G1 X113.181 Y119.041 E0.11054
G1 X102.879 Y119.041 E0.32303
G1 X102.879 Y112.549 E0.20357
G1 X113.181 Y112.549 E0.32303
G1 X113.181 Y115.456 E0.09115
G1 X112.804 Y115.456 F10800.000
