; generated by Slic3r Prusa Edition 1.41.2+win64 on 2018-12-01 at 12:56:03

; 

; external perimeters extrusion width = 0.45mm
; perimeters extrusion width = 0.45mm
; infill extrusion width = 0.45mm
; solid infill extrusion width = 0.45mm
; top infill extrusion width = 0.40mm
; first layer extrusion width = 0.42mm

M73 P0 R2
M73 Q0 S2
M201 X1000 Y1000 Z1000 E5000 ; sets maximum accelerations, mm/sec^2
M203 X200 Y200 Z12 E120 ; sets maximum feedrates, mm/sec
M204 P1250 R1250 T1250 ; sets acceleration (P, T) and retract acceleration (R), mm/sec^2
M205 X8.00 Y8.00 Z0.40 E1.50 ; sets the jerk limits, mm/sec
M205 S0 T0 ; sets the minimum extruding and travel feed rate, mm/sec
M107
M115 U3.4.1 ; tell printer latest fw version
M83  ; extruder relative mode
M104 S230 ; set extruder temp
M140 S85 ; set bed temp
M190 S85 ; wait for bed temp
M109 S230 ; wait for extruder temp
G28 W ; home all without mesh bed level
G80 ; mesh bed leveling
G1 Y-3.0 F1000.0 ; go outside print area
G92 E0.0
G1 X60.0 E9.0  F1000.0 ; intro line
M73 Q2 S2
M73 P2 R2
G1 X100.0 E12.5  F1000.0 ; intro line
G92 E0.0
M221 S95
M900 K45; Filament gcode
G21 ; set units to millimeters
G90 ; use absolute coordinates
M83 ; use relative distances for extrusion
;BEFORE_LAYER_CHANGE
G92 E0.0
;0.2


G1 E-0.80000 F2100.00000
G1 Z0.600 F10800.000
;AFTER_LAYER_CHANGE
;0.2
G1 X108.961 Y87.141
G1 Z0.200
G1 E0.80000 F2100.00000
M204 S1000
G1 F1200
G1 X109.292 Y86.525 E0.02191
G1 X109.627 Y86.175 E0.01521
G1 X110.032 Y85.907 E0.01521
G1 X110.485 Y85.735 E0.01521
G1 X110.966 Y85.667 E0.01521
G1 X138.974 Y85.666 E0.87817
G1 X139.787 Y85.825 E0.02597
G1 X140.483 Y86.273 E0.02597
G1 X140.962 Y86.949 E0.02597
G1 X141.156 Y87.754 E0.02597
G1 X141.158 Y122.174 E1.07922
G1 X141.038 Y122.862 E0.02191
G1 X140.706 Y123.478 E0.02191
G1 X140.364 Y123.832 E0.01544
G1 X139.952 Y124.101 E0.01544
G1 X139.490 Y124.271 E0.01544
G1 X138.998 Y124.333 E0.01555
G1 X110.997 Y124.333 E0.87794
G1 X110.313 Y124.213 E0.02179
G1 X109.697 Y123.881 E0.02191
G1 X109.343 Y123.539 E0.01544
G1 X109.072 Y123.124 E0.01555
G1 X108.903 Y122.661 E0.01544
G1 X108.842 Y122.169 E0.01555
G1 X108.842 Y87.826 E1.07681
G1 X108.951 Y87.200 E0.01991
; PURGING FINISHED
G1 F8640
G1 X109.292 Y86.525 E-0.17454
G1 X109.627 Y86.175 E-0.11201
G1 X110.032 Y85.907 E-0.11201
G1 X110.485 Y85.735 E-0.11201
G1 X110.966 Y85.667 E-0.11201
G1 X111.561 Y85.667 E-0.13742
G1 E-0.04000 F2100.00000
G1 Z0.800 F10800.000
G1 X120.603 Y113.303
G1 Z0.200
G1 E0.80000 F2100.00000
G1 F1200
G1 X129.397 Y113.303 E0.27573
G1 X129.397 Y118.287 E0.15627
G1 X120.603 Y118.287 E0.27573
G1 X120.603 Y113.363 E0.15439
G1 X120.980 Y113.680 F10800.000
G1 F1200
G1 X129.020 Y113.680 E0.25209
G1 X129.020 Y117.910 E0.13263
G1 X120.980 Y117.910 E0.25209
G1 X120.980 Y113.740 E0.13075
G1 X120.838 Y113.306 F10800.000
G1 F8640
G1 X124.271 Y113.715 E-0.76000
G1 E-0.04000 F2100.00000
G1 Z0.800 F10800.000
G1 X117.549 Y114.914
G1 Z0.200
G1 E0.80000 F2100.00000
G1 F1200
G1 X117.680 Y115.328 E0.01358
G1 X117.729 Y115.774 E0.01408
G1 X117.691 Y116.207 E0.01363
G1 X117.565 Y116.638 E0.01408
G1 X117.364 Y117.023 E0.01363
G1 X117.082 Y117.375 E0.01412
G1 X116.736 Y117.663 E0.01412
G1 X116.354 Y117.870 E0.01363
G1 X115.926 Y118.003 E0.01408
G1 X115.493 Y118.049 E0.01363
G1 X115.046 Y118.007 E0.01408
G1 X114.630 Y117.884 E0.01363
G1 X114.232 Y117.675 E0.01408
G1 X113.896 Y117.402 E0.01358
G1 X113.617 Y117.070 E0.01358
G1 X113.400 Y116.676 E0.01412
G1 X113.267 Y116.246 E0.01412
G1 X113.221 Y115.813 E0.01363
G1 X113.263 Y115.366 E0.01408
G1 X113.386 Y114.950 E0.01360
G1 X113.589 Y114.562 E0.01375
G1 X113.868 Y114.215 E0.01395
G1 X114.214 Y113.927 E0.01411
G1 X114.596 Y113.720 E0.01363
G1 X115.025 Y113.587 E0.01409
G1 X115.462 Y113.541 E0.01379
G1 X115.904 Y113.583 E0.01391
G1 X116.320 Y113.706 E0.01361
G1 X116.718 Y113.915 E0.01408
G1 X117.055 Y114.189 E0.01363
G1 X117.343 Y114.534 E0.01408
G1 X117.521 Y114.862 E0.01170
G1 X117.189 Y115.042 F10800.000
G1 F1200
G1 X117.309 Y115.406 E0.01201
G1 X117.350 Y115.778 E0.01175
G1 X117.318 Y116.137 E0.01130
G1 X117.213 Y116.497 E0.01175
G1 X117.047 Y116.816 E0.01130
G1 X116.812 Y117.109 E0.01176
G1 X116.524 Y117.349 E0.01176
G1 X116.207 Y117.521 E0.01130
G1 X115.849 Y117.632 E0.01175
G1 X115.491 Y117.670 E0.01130
G1 X115.118 Y117.635 E0.01175
G1 X114.772 Y117.533 E0.01130
G1 X114.441 Y117.359 E0.01175
G1 X114.161 Y117.132 E0.01128
G1 X113.930 Y116.856 E0.01128
G1 X113.749 Y116.528 E0.01176
G1 X113.638 Y116.169 E0.01176
G1 X113.600 Y115.811 E0.01130
G1 X113.635 Y115.438 E0.01175
G1 X113.737 Y115.093 E0.01129
G1 X113.906 Y114.769 E0.01144
G1 X114.138 Y114.481 E0.01161
G1 X114.426 Y114.241 E0.01176
G1 X114.743 Y114.069 E0.01130
G1 X115.101 Y113.958 E0.01175
G1 X115.464 Y113.920 E0.01145
G1 X115.832 Y113.955 E0.01159
G1 X116.178 Y114.057 E0.01129
G1 X116.509 Y114.231 E0.01175
G1 X116.789 Y114.458 E0.01130
G1 X117.029 Y114.746 E0.01175
G1 X117.161 Y114.989 E0.00866
G1 X117.570 Y115.084 F10800.000
G1 F8640
G1 X117.309 Y115.406 E-0.10212
G1 X117.350 Y115.778 E-0.08653
G1 X117.318 Y116.137 E-0.08319
G1 X117.213 Y116.497 E-0.08653
G1 X117.047 Y116.816 E-0.08319
G1 X116.812 Y117.109 E-0.08663
G1 X116.524 Y117.349 E-0.08663
G1 X116.207 Y117.521 E-0.08319
G1 X115.951 Y117.600 E-0.06199
G1 E-0.04000 F2100.00000
G1 Z0.800 F10800.000
G1 X116.354 Y112.790
G1 Z0.200
G1 E0.80000 F2100.00000
G1 F1200
G1 X115.926 Y112.923 E0.01408
G1 X115.493 Y112.969 E0.01363
G1 X115.046 Y112.927 E0.01408
G1 X114.630 Y112.804 E0.01363
G1 X114.232 Y112.595 E0.01408
G1 X113.896 Y112.322 E0.01358
G1 X113.617 Y111.990 E0.01358
G1 X113.400 Y111.596 E0.01412
G1 X113.267 Y111.166 E0.01412
G1 X113.221 Y110.733 E0.01363
G1 X113.263 Y110.286 E0.01408
G1 X113.386 Y109.870 E0.01363
G1 X113.595 Y109.472 E0.01408
G1 X113.869 Y109.135 E0.01363
G1 X114.214 Y108.847 E0.01408
G1 X114.596 Y108.640 E0.01363
G1 X115.025 Y108.507 E0.01409
G1 X115.462 Y108.461 E0.01379
G1 X115.904 Y108.503 E0.01391
G1 X116.320 Y108.626 E0.01359
G1 X116.708 Y108.829 E0.01375
G1 X117.055 Y109.108 E0.01395
G1 X117.343 Y109.454 E0.01411
G1 X117.549 Y109.834 E0.01358
G1 X117.680 Y110.248 E0.01358
G1 X117.729 Y110.694 E0.01408
G1 X117.691 Y111.127 E0.01363
G1 X117.565 Y111.558 E0.01408
G1 X117.364 Y111.943 E0.01363
G1 X117.082 Y112.295 E0.01412
G1 X116.736 Y112.583 E0.01412
G1 X116.407 Y112.761 E0.01174
G1 X116.227 Y112.430 F10800.000
G1 F1200
G1 X115.849 Y112.552 E0.01245
G1 X115.491 Y112.590 E0.01130
G1 X115.118 Y112.555 E0.01175
G1 X114.772 Y112.453 E0.01130
G1 X114.441 Y112.279 E0.01175
G1 X114.161 Y112.052 E0.01128
G1 X113.930 Y111.776 E0.01128
G1 X113.749 Y111.448 E0.01176
G1 X113.638 Y111.089 E0.01176
G1 X113.600 Y110.731 E0.01130
G1 X113.635 Y110.358 E0.01175
G1 X113.737 Y110.012 E0.01130
G1 X113.911 Y109.681 E0.01175
G1 X114.138 Y109.401 E0.01130
G1 X114.426 Y109.161 E0.01175
G1 X114.743 Y108.989 E0.01130
G1 X115.101 Y108.878 E0.01175
G1 X115.464 Y108.840 E0.01145
G1 X115.832 Y108.875 E0.01159
G1 X116.177 Y108.977 E0.01128
G1 X116.501 Y109.146 E0.01144
G1 X116.789 Y109.378 E0.01161
G1 X117.029 Y109.666 E0.01176
G1 X117.201 Y109.983 E0.01128
G1 X117.309 Y110.326 E0.01128
G1 X117.350 Y110.698 E0.01175
G1 X117.318 Y111.057 E0.01130
G1 X117.213 Y111.417 E0.01175
G1 X117.047 Y111.736 E0.01130
G1 X116.812 Y112.029 E0.01176
G1 X116.524 Y112.269 E0.01176
G1 X116.280 Y112.401 E0.00870
G1 X116.182 Y112.825 F10800.000
G1 F8640
G1 X115.849 Y112.552 E-0.10536
G1 X115.491 Y112.590 E-0.08319
G1 X115.118 Y112.555 E-0.08653
G1 X114.772 Y112.453 E-0.08319
G1 X114.441 Y112.279 E-0.08653
G1 X114.161 Y112.052 E-0.08308
G1 X113.930 Y111.776 E-0.08308
G1 X113.749 Y111.448 E-0.08663
G1 X113.669 Y111.189 E-0.06241
G1 E-0.04000 F2100.00000
G1 Z0.800 F10800.000
G1 X132.313 Y115.366
G1 Z0.200
G1 E0.80000 F2100.00000
G1 F1200
G1 X132.436 Y114.950 E0.01360
G1 X132.639 Y114.562 E0.01375
G1 X132.918 Y114.215 E0.01395
G1 X133.264 Y113.927 E0.01411
G1 X133.646 Y113.720 E0.01363
G1 X134.075 Y113.587 E0.01409
G1 X134.512 Y113.541 E0.01379
G1 X134.954 Y113.583 E0.01391
G1 X135.370 Y113.706 E0.01361
G1 X135.768 Y113.915 E0.01408
G1 X136.106 Y114.189 E0.01363
G1 X136.393 Y114.534 E0.01408
G1 X136.600 Y114.916 E0.01363
G1 X136.733 Y115.344 E0.01408
G1 X136.779 Y115.777 E0.01363
G1 X136.737 Y116.224 E0.01408
G1 X136.614 Y116.640 E0.01363
G1 X136.405 Y117.038 E0.01408
G1 X136.131 Y117.375 E0.01363
G1 X135.786 Y117.663 E0.01408
G1 X135.404 Y117.870 E0.01363
G1 X134.976 Y118.003 E0.01408
G1 X134.543 Y118.049 E0.01363
G1 X134.096 Y118.007 E0.01408
G1 X133.680 Y117.884 E0.01363
G1 X133.282 Y117.675 E0.01408
G1 X132.945 Y117.401 E0.01363
G1 X132.657 Y117.056 E0.01408
G1 X132.451 Y116.676 E0.01358
G1 X132.320 Y116.262 E0.01358
G1 X132.271 Y115.815 E0.01412
G1 X132.307 Y115.426 E0.01224
G1 X132.683 Y115.461 F10800.000
G1 F1200
G1 X132.787 Y115.093 E0.01199
G1 X132.956 Y114.769 E0.01144
G1 X133.188 Y114.481 E0.01161
G1 X133.476 Y114.241 E0.01176
G1 X133.793 Y114.069 E0.01130
G1 X134.151 Y113.958 E0.01175
G1 X134.514 Y113.920 E0.01145
G1 X134.882 Y113.955 E0.01159
G1 X135.228 Y114.057 E0.01129
G1 X135.559 Y114.231 E0.01175
G1 X135.839 Y114.458 E0.01130
G1 X136.079 Y114.746 E0.01175
G1 X136.251 Y115.063 E0.01130
G1 X136.362 Y115.421 E0.01175
G1 X136.400 Y115.779 E0.01130
G1 X136.365 Y116.152 E0.01175
G1 X136.263 Y116.498 E0.01130
G1 X136.089 Y116.829 E0.01175
G1 X135.862 Y117.109 E0.01130
G1 X135.574 Y117.349 E0.01175
G1 X135.257 Y117.521 E0.01130
G1 X134.899 Y117.632 E0.01175
G1 X134.541 Y117.670 E0.01130
G1 X134.168 Y117.635 E0.01175
G1 X133.822 Y117.533 E0.01130
G1 X133.491 Y117.359 E0.01175
G1 X133.211 Y117.132 E0.01130
G1 X132.971 Y116.844 E0.01175
G1 X132.799 Y116.527 E0.01128
G1 X132.691 Y116.184 E0.01128
G1 X132.650 Y115.811 E0.01176
G1 X132.677 Y115.520 E0.00917
G1 X132.391 Y115.213 F10800.000
G1 F8640
G1 X132.787 Y115.093 E-0.10195
G1 X132.956 Y114.769 E-0.08423
G1 X133.188 Y114.481 E-0.08548
G1 X133.476 Y114.241 E-0.08660
G1 X133.793 Y114.069 E-0.08319
G1 X134.151 Y113.958 E-0.08656
G1 X134.514 Y113.920 E-0.08434
G1 X134.882 Y113.955 E-0.08538
G1 X135.141 Y114.031 E-0.06226
G1 E-0.04000 F2100.00000
G1 Z0.800 F10800.000
G1 X138.383 Y121.558
G1 Z0.200
G1 E0.80000 F2100.00000
G1 F1200
G1 X111.617 Y121.558 E0.83922
G1 X111.617 Y104.502 E0.53478
G1 X111.863 Y104.604 E0.00835
G1 X112.243 Y104.691 E0.01222
G1 X112.618 Y104.712 E0.01177
G1 X113.005 Y104.667 E0.01222
G1 X113.365 Y104.562 E0.01177
G1 X113.715 Y104.391 E0.01222
G1 X114.020 Y104.171 E0.01177
G1 X114.293 Y103.893 E0.01222
G1 X114.506 Y103.584 E0.01177
G1 X114.671 Y103.230 E0.01226
G1 X114.773 Y102.851 E0.01230
G1 X114.807 Y102.461 E0.01226
G1 X114.776 Y102.087 E0.01177
G1 X114.678 Y101.710 E0.01222
G1 X114.524 Y101.368 E0.01177
G1 X114.307 Y101.044 E0.01222
G1 X114.047 Y100.773 E0.01177
G1 X113.734 Y100.541 E0.01222
G1 X113.399 Y100.372 E0.01177
G1 X113.026 Y100.257 E0.01222
G1 X112.654 Y100.209 E0.01177
G1 X112.264 Y100.226 E0.01226
G1 X111.882 Y100.310 E0.01226
G1 X111.617 Y100.417 E0.00895
G1 X111.617 Y88.442 E0.37548
G1 X138.383 Y88.442 E0.83922
G1 X138.383 Y100.418 E0.37550
G1 X138.137 Y100.316 E0.00835
G1 X137.756 Y100.229 E0.01225
G1 X137.371 Y100.208 E0.01210
G1 X136.994 Y100.253 E0.01189
G1 X136.635 Y100.358 E0.01174
G1 X136.284 Y100.530 E0.01226
G1 X135.967 Y100.761 E0.01230
G1 X135.694 Y101.043 E0.01230
G1 X135.476 Y101.368 E0.01226
G1 X135.322 Y101.709 E0.01173
G1 X135.227 Y102.070 E0.01173
G1 X135.193 Y102.459 E0.01222
G1 X135.224 Y102.833 E0.01177
G1 X135.322 Y103.210 E0.01222
G1 X135.476 Y103.552 E0.01177
G1 X135.693 Y103.876 E0.01222
G1 X135.953 Y104.147 E0.01177
G1 X136.266 Y104.379 E0.01222
G1 X136.601 Y104.548 E0.01177
G1 X136.974 Y104.663 E0.01222
G1 X137.346 Y104.711 E0.01177
G1 X137.735 Y104.694 E0.01222
G1 X138.102 Y104.615 E0.01177
G1 X138.383 Y104.502 E0.00949
G1 X138.383 Y121.498 E0.53288
G1 X138.760 Y121.935 F10800.000
G1 F1200
G1 X111.240 Y121.935 E0.86287
G1 X111.240 Y103.790 E0.56893
G1 X111.429 Y103.959 E0.00795
G1 X111.692 Y104.124 E0.00974
G1 X111.978 Y104.244 E0.00974
G1 X112.296 Y104.317 E0.01021
G1 X112.606 Y104.334 E0.00975
G1 X112.930 Y104.296 E0.01021
G1 X113.228 Y104.209 E0.00975
G1 X113.521 Y104.066 E0.01021
G1 X113.773 Y103.884 E0.00975
G1 X114.001 Y103.652 E0.01021
G1 X114.178 Y103.396 E0.00975
G1 X114.316 Y103.101 E0.01022
G1 X114.400 Y102.785 E0.01024
G1 X114.428 Y102.460 E0.01022
G1 X114.403 Y102.150 E0.00975
G1 X114.321 Y101.835 E0.01021
G1 X114.194 Y101.552 E0.00975
G1 X114.012 Y101.282 E0.01021
G1 X113.797 Y101.057 E0.00975
G1 X113.535 Y100.863 E0.01021
G1 X113.258 Y100.723 E0.00975
G1 X112.947 Y100.627 E0.01021
G1 X112.638 Y100.587 E0.00975
G1 X112.312 Y100.601 E0.01022
G1 X111.994 Y100.671 E0.01022
G1 X111.706 Y100.788 E0.00974
G1 X111.442 Y100.951 E0.00974
G1 X111.240 Y101.129 E0.00843
G1 X111.240 Y88.065 E0.40961
G1 X138.760 Y88.065 E0.86287
G1 X138.760 Y101.130 E0.40964
G1 X138.584 Y100.970 E0.00746
G1 X138.309 Y100.796 E0.01021
G1 X138.022 Y100.676 E0.00975
G1 X137.704 Y100.603 E0.01022
G1 X137.383 Y100.587 E0.01006
G1 X137.070 Y100.624 E0.00989
G1 X136.772 Y100.711 E0.00974
G1 X136.479 Y100.854 E0.01022
G1 X136.215 Y101.046 E0.01024
G1 X135.988 Y101.281 E0.01024
G1 X135.806 Y101.552 E0.01022
G1 X135.679 Y101.835 E0.00974
G1 X135.600 Y102.135 E0.00974
G1 X135.572 Y102.460 E0.01021
G1 X135.597 Y102.770 E0.00975
G1 X135.679 Y103.085 E0.01021
G1 X135.806 Y103.368 E0.00975
G1 X135.988 Y103.638 E0.01021
G1 X136.203 Y103.863 E0.00975
G1 X136.465 Y104.057 E0.01021
G1 X136.742 Y104.197 E0.00975
G1 X137.053 Y104.293 E0.01021
G1 X137.362 Y104.333 E0.00975
G1 X137.687 Y104.319 E0.01021
G1 X137.991 Y104.253 E0.00975
G1 X138.293 Y104.132 E0.01021
G1 X138.558 Y103.969 E0.00975
G1 X138.760 Y103.791 E0.00843
G1 X138.760 Y121.875 E0.56701
G1 X138.413 Y121.736 F10800.000
G1 F8640
G1 X135.469 Y121.882 E-0.76000
G1 E-0.04000 F2100.00000
G1 Z0.800 F10800.000
G1 X136.084 Y121.445
G1 Z0.200
G1 E0.80000 F2100.00000
G1 F1200
G1 X129.680 Y115.041 E0.28547
G1 X129.680 Y115.577 E0.01690
G1 X135.378 Y121.275 E0.25401
G1 X134.842 Y121.275 E0.01690
G1 X129.680 Y116.113 E0.23011
G1 X129.680 Y116.649 E0.01690
G1 X134.306 Y121.275 E0.20621
G1 X133.770 Y121.275 E0.01690
G1 X129.680 Y117.185 E0.18232
G1 X129.680 Y117.721 E0.01690
G1 X133.234 Y121.275 E0.15842
G1 X132.698 Y121.275 E0.01690
G1 X129.680 Y118.257 E0.13453
G1 X129.680 Y118.570 E0.00986
G1 X129.457 Y118.570 E0.00704
G1 X132.162 Y121.275 E0.12059
G1 X131.626 Y121.275 E0.01690
G1 X128.920 Y118.570 E0.12059
G1 X128.384 Y118.570 E0.01690
G1 X131.090 Y121.275 E0.12059
G1 X130.554 Y121.275 E0.01690
G1 X127.848 Y118.570 E0.12059
G1 X127.312 Y118.570 E0.01690
G1 X130.017 Y121.275 E0.12059
G1 X129.481 Y121.275 E0.01690
G1 X126.776 Y118.570 E0.12059
G1 X126.240 Y118.570 E0.01690
G1 X128.945 Y121.275 E0.12059
G1 X128.409 Y121.275 E0.01690
G1 X125.704 Y118.570 E0.12059
G1 X125.168 Y118.570 E0.01690
G1 X127.873 Y121.275 E0.12059
G1 X127.337 Y121.275 E0.01690
G1 X124.632 Y118.570 E0.12059
G1 X124.096 Y118.570 E0.01690
G1 X126.801 Y121.275 E0.12059
G1 X126.265 Y121.275 E0.01690
G1 X123.560 Y118.570 E0.12059
G1 X123.024 Y118.570 E0.01690
G1 X125.729 Y121.275 E0.12059
G1 X125.193 Y121.275 E0.01690
G1 X122.488 Y118.570 E0.12059
G1 X121.951 Y118.570 E0.01690
G1 X124.657 Y121.275 E0.12059
G1 X124.121 Y121.275 E0.01690
G1 X121.415 Y118.570 E0.12059
G1 X120.879 Y118.570 E0.01690
G1 X123.585 Y121.275 E0.12059
G1 X123.048 Y121.275 E0.01690
G1 X117.975 Y116.202 E0.22615
G1 X117.863 Y116.626 E0.01383
G1 X122.512 Y121.275 E0.20724
G1 X121.976 Y121.275 E0.01690
G1 X117.697 Y116.996 E0.19073
G1 X117.602 Y117.179 E0.00649
G1 X117.487 Y117.322 E0.00579
G1 X121.440 Y121.275 E0.17620
G1 X120.904 Y121.275 E0.01690
G1 X117.240 Y117.611 E0.16332
G1 X116.948 Y117.855 E0.01200
G1 X120.368 Y121.275 E0.15247
G1 X119.832 Y121.275 E0.01690
G1 X116.610 Y118.053 E0.14363
G1 X116.465 Y118.132 E0.00520
G1 X116.227 Y118.206 E0.00786
G1 X119.296 Y121.275 E0.13682
G1 X118.760 Y121.275 E0.01690
G1 X115.787 Y118.302 E0.13253
G1 X115.495 Y118.333 E0.00924
G1 X115.260 Y118.311 E0.00746
G1 X118.224 Y121.275 E0.13212
G1 X117.688 Y121.275 E0.01690
